; generated by PrusaSlicer 2.0.0+ on 2019-10-13 at 17:22:43

; 

; external perimeters extrusion width = 0.45mm
; perimeters extrusion width = 0.45mm
; infill extrusion width = 0.45mm
; solid infill extrusion width = 0.45mm
; top infill extrusion width = 0.40mm
; first layer extrusion width = 0.60mm

M201 X9000 Y9000 Z500 E10000 ; sets maximum accelerations, mm/sec^2
M203 X500 Y500 Z12 E120 ; sets maximum feedrates, mm/sec
M204 P1500 R1500 T1500 ; sets acceleration (P, T) and retract acceleration (R), mm/sec^2
M205 X10.00 Y10.00 Z0.20 E2.50 ; sets the jerk limits, mm/sec
M205 S0 T0 ; sets the minimum extruding and travel feed rate, mm/sec
M107
M104 S180 ; set temperature
G28 ; home all axes
G1 Z5 F5000 ; lift nozzle
; Filament gcode
M109 S180 ; set temperature and wait for it to be reached
G21 ; set units to millimeters
G90 ; use absolute coordinates
M82 ; use absolute distances for extrusion
G92 E0
G1 Z0.300 F3600.000
G1 E-2.00000 F2400.00000
G92 E0
G1 X65.314 Y65.838 F3600.000
G1 E2.00000 F2400.00000
G1 F1800
G1 X66.241 Y64.985 E2.08415
G1 X67.320 Y64.334 E2.16830
G1 X68.507 Y63.913 E2.25245
G1 X69.760 Y63.737 E2.33701
G1 X120.006 Y63.732 E5.69372
G1 X121.168 Y63.842 E5.77171
G1 X122.290 Y64.165 E5.84969
G1 X123.332 Y64.691 E5.92767
G1 X124.259 Y65.401 E6.00565
G1 X125.038 Y66.271 E6.08363
G1 X125.642 Y67.269 E6.16161
G1 X126.052 Y68.369 E6.24001
G1 X126.249 Y69.519 E6.31799
G1 X126.265 Y120.179 E9.70235
G1 X126.140 Y121.259 E9.77498
G1 X125.828 Y122.307 E9.84803
G1 X125.338 Y123.285 E9.92107
G1 X124.686 Y124.162 E9.99411
G1 X123.719 Y125.045 E10.08155
G1 X122.591 Y125.707 E10.16899
G1 X121.349 Y126.121 E10.25643
G1 X120.054 Y126.268 E10.34346
G1 X69.814 Y126.265 E13.69976
G1 X68.735 Y126.139 E13.77239
G1 X67.687 Y125.825 E13.84543
G1 X66.715 Y125.338 E13.91806
G1 X65.838 Y124.686 E13.99111
G1 X64.955 Y123.719 E14.07855
G1 X64.293 Y122.591 E14.16599
G1 X63.879 Y121.349 E14.25342
G1 X63.732 Y120.054 E14.34045
G1 X63.735 Y69.814 E17.69675
G1 X63.861 Y68.735 E17.76938
G1 X64.175 Y67.687 E17.84243
G1 X64.662 Y66.715 E17.91506
G1 X65.278 Y65.886 E17.98409
G1 E15.98409 F2400.00000
G92 E0
G1 X92.851 Y117.478 F3600.000
G1 E2.00000 F2400.00000
G1 F1800
G1 X92.623 Y116.326 E2.04698
G1 X92.609 Y116.218 E2.05101
G1 X92.596 Y116.111 E2.05452
G1 X92.583 Y116.003 E2.05749
G1 X92.428 Y115.354 F3600.000
G1 F1800
G1 X92.370 Y115.488 E2.06248
G1 X92.371 Y115.532 E2.06413
G1 X92.414 Y115.715 E2.07126
G1 X92.465 Y115.774 E2.07422
G1 X92.525 Y115.833 E2.07619
G1 X92.573 Y115.927 E2.07867
G1 X92.582 Y116.003 E2.08038
G1 X92.583 Y116.003 E2.08038
G1 X93.537 Y115.937 F3600.000
G1 F1800
G1 X93.194 Y115.256 E2.10484
G1 X93.184 Y115.177 E2.10731
G1 X93.173 Y115.097 E2.11008
G1 X93.001 Y114.165 E2.14465
G1 X93.357 Y114.114 F3600.000
G1 F1800
G1 X93.337 Y114.165 E2.14770
G1 X93.306 Y114.263 E2.15343
G1 X93.274 Y114.361 E2.15962
G1 X93.132 Y114.431 E2.17015
G1 X93.099 Y114.453 E2.17302
G1 X93.065 Y114.475 E2.17610
G1 X92.998 Y114.518 E2.18233
G1 X92.812 Y114.463 E2.19748
G1 X92.578 Y114.424 E2.21244
G1 X92.559 Y114.368 E2.21615
G1 X92.502 Y114.165 E2.22598
G1 X92.486 Y114.118 E2.22821
G1 E0.22821 F2400.00000
G92 E0
G1 X90.735 Y112.375 F3600.000
G1 X89.999 Y113.332
G1 X86.399 Y109.797
G1 X86.301 Y109.297
G1 E2.00000 F2400.00000
G1 F1800
G1 X86.301 Y120.000 E2.79295
G1 X87.100 Y120.000 F3600.000
G1 F1800
G1 X87.100 Y109.297 E3.58723
G1 X88.050 Y109.297 F3600.000
G1 F1800
G1 X88.050 Y120.000 E4.51501
G1 X89.100 Y120.000 F3600.000
G1 F1800
G1 X89.100 Y109.297 E5.30929
G1 E3.30929 F2400.00000
G92 E0
G1 X89.181 Y108.297 F3600.000
G1 X87.392 Y107.917
G1 X86.451 Y108.297
G1 X86.451 Y109.850
G1 X84.898 Y109.797
G1 X84.449 Y109.333
G1 X83.621 Y111.032
G1 X82.023 Y110.864
G1 X80.499 Y107.873
G1 X78.031 Y106.520
G1 X79.624 Y103.519
G1 X78.211 Y96.446
G1 X78.664 Y96.185
G1 X85.537 Y97.394
G1 X88.629 Y95.611
G1 X88.597 Y97.440
G1 X89.070 Y99.858
G1 X90.899 Y101.448
G1 X91.055 Y102.556
G1 X92.853 Y102.556
G1 X94.100 Y105.034
G1 E2.00000 F2400.00000
G1 F1800
G1 X92.813 Y104.675 E2.08769
G1 X92.218 Y104.894 F3600.000
G1 F1800
G1 X92.488 Y104.912 E2.09914
G1 X92.529 Y104.912 E2.10083
G1 X92.700 Y104.902 E2.10830
G1 X92.748 Y104.896 E2.11045
G1 X92.826 Y104.881 E2.11436
G1 X92.905 Y104.866 E2.11859
G1 X93.244 Y104.763 E2.13843
G1 X93.582 Y104.660 E2.15946
G1 E0.15946 F2400.00000
G92 E0
G1 X92.853 Y102.556 F3600.000
G1 X91.055 Y102.556
G1 X90.899 Y101.448
G1 X89.064 Y99.836
G1 X92.973 Y99.733
G1 X92.999 Y100.861
G1 X93.226 Y100.901
G1 E2.00000 F2400.00000
G1 F1800
G1 X92.730 Y100.901 E2.03315
G1 X92.834 Y100.433 E2.06518
G1 X93.082 Y100.424 E2.08174
G1 X93.209 Y100.844 E2.11103
G1 X92.843 Y100.786 F3600.000
G1 X92.959 Y99.377
G1 F1800
G1 X93.209 Y99.342 E2.13697
G1 X93.218 Y99.342 E2.13790
G1 X93.576 Y100.844 F3600.000
G1 F1800
G1 X93.541 Y100.631 E2.15233
G1 X93.736 Y100.566 E2.16601
G1 X93.982 Y100.419 E2.18519
G1 X94.183 Y100.223 E2.20398
G1 X94.329 Y99.981 E2.22284
G1 X94.412 Y99.697 E2.24259
G1 X94.439 Y99.372 E2.26437
G1 X94.408 Y98.990 E2.28999
G1 X94.307 Y98.655 E2.31339
G1 X94.114 Y98.368 E2.33650
G1 X93.822 Y98.132 E2.36156
G1 X93.443 Y97.976 E2.38896
G1 X92.988 Y97.924 E2.41950
G1 X92.445 Y98.007 E2.45624
G1 X92.161 Y98.132 E2.47692
G1 X91.943 Y98.303 E2.49547
G1 X91.770 Y98.517 E2.51384
G1 X91.645 Y98.779 E2.53324
G1 X91.558 Y99.333 E2.57071
G1 X91.610 Y99.792 E2.60152
G1 X91.795 Y100.207 E2.63189
G1 X91.599 Y100.207 E2.64498
G1 X91.599 Y103.912 E2.89248
G1 X91.661 Y104.466 E2.92974
G1 X91.821 Y104.777 E2.95309
G1 X91.599 Y104.777 E2.96790
G1 X91.599 Y106.182 E3.06174
G1 X91.622 Y106.058 E3.07013
G1 X93.258 Y106.058 E3.17946
G1 X93.258 Y106.958 E3.23957
G1 X90.367 Y105.866 E3.44602
G1 X90.367 Y107.232 E3.53730
G1 X90.118 Y107.290 E3.55437
G1 X88.913 Y104.823 E3.73776
G1 X91.377 Y102.088 E3.98369
G1 X87.732 Y102.602 E4.22962
G1 X85.893 Y99.412 E4.47558
G1 X85.254 Y103.039 E4.72158
G1 X81.653 Y103.803 E4.96751
G1 X84.903 Y105.530 E5.21343
G1 X84.518 Y109.191 E5.45933
G1 X87.166 Y106.633 E5.70523
G1 X90.529 Y108.131 E5.95114
G1 X90.265 Y107.591 E5.99129
G1 X91.732 Y108.049 E6.09398
G1 X91.732 Y108.286 E6.10979
G1 X90.367 Y108.708 E6.20521
G1 X90.367 Y108.997 E6.22454
G1 X85.598 Y108.997 E6.54313
G1 X85.598 Y119.700 E7.25815
G1 X70.300 Y119.700 E8.28014
G1 X70.300 Y70.300 E11.58033
G1 X119.700 Y70.300 E14.88051
G1 X119.700 Y85.535 E15.89831
G1 X117.935 Y86.727 E16.04058
G1 X116.932 Y87.169 E16.11385
G1 X116.503 Y87.228 E16.14272
G1 X116.091 Y87.170 E16.17056
G1 X115.100 Y86.695 E16.24397
G1 X113.672 Y85.663 E16.36164
G1 X113.037 Y85.244 E16.41247
G1 X112.087 Y84.808 E16.48231
G1 X111.502 Y84.726 E16.52175
G1 X110.910 Y84.807 E16.56169
G1 X109.994 Y85.193 E16.62813
G1 X108.917 Y85.873 E16.71320
G1 X107.612 Y86.763 E16.81875
G1 X106.803 Y87.173 E16.87932
G1 X106.504 Y87.226 E16.89958
G1 X106.288 Y87.183 E16.91435
G1 X105.703 Y86.662 E16.96666
G1 X104.864 Y85.323 E17.07222
G1 X104.401 Y84.834 E17.11719
G1 X104.003 Y84.717 E17.14492
G1 X103.594 Y84.831 E17.17331
G1 X102.923 Y85.508 E17.23699
G1 X101.928 Y86.899 E17.35121
G1 X101.602 Y87.191 E17.38045
G1 X101.500 Y87.219 E17.38751
G1 X101.407 Y87.194 E17.39394
G1 X100.884 Y86.666 E17.44358
G1 X100.243 Y85.734 E17.51912
G1 X99.918 Y85.305 E17.55512
G1 X99.400 Y84.829 E17.60207
G1 X99.000 Y84.717 E17.62982
G1 X98.593 Y84.832 E17.65808
G1 X97.921 Y85.510 E17.72186
G1 X97.408 Y86.249 E17.78196
G1 X96.902 Y86.926 E17.83844
G1 X96.602 Y87.191 E17.86515
G1 X96.499 Y87.219 E17.87230
G1 X96.406 Y87.194 E17.87873
G1 X95.883 Y86.666 E17.92838
G1 X95.242 Y85.734 E18.00391
G1 X94.917 Y85.305 E18.03992
G1 X94.399 Y84.829 E18.08687
G1 X93.999 Y84.717 E18.11462
G1 X93.592 Y84.832 E18.14287
G1 X92.920 Y85.510 E18.20666
G1 X92.408 Y86.249 E18.26672
G1 X91.902 Y86.926 E18.32318
G1 X91.601 Y87.191 E18.34994
G1 X91.501 Y87.219 E18.35691
G1 X91.371 Y87.180 E18.36597
G1 X90.806 Y86.701 E18.41545
G1 X89.165 Y84.669 E18.58995
G1 X88.653 Y84.940 E18.62865
G1 X89.049 Y86.179 E18.71555
G1 X90.119 Y88.595 E18.89208
G1 X90.666 Y89.557 E18.96602
G1 X91.005 Y90.010 E19.00385
G1 X91.378 Y90.324 E19.03642
G1 X91.824 Y90.360 E19.06633
G1 X92.206 Y90.117 E19.09652
G1 X92.651 Y89.530 E19.14573
G1 X93.154 Y88.683 E19.21156
G1 X93.711 Y87.892 E19.27620
G1 X93.849 Y87.803 E19.28717
G1 X94.003 Y87.951 E19.30145
G1 X94.472 Y88.913 E19.37293
G1 X95.504 Y91.717 E19.57256
G1 X96.032 Y92.632 E19.64317
G1 X96.500 Y92.873 E19.67826
G1 X96.964 Y92.632 E19.71323
G1 X97.522 Y91.659 E19.78812
G1 X98.554 Y88.849 E19.98810
G1 X98.995 Y87.952 E20.05491
G1 X99.162 Y87.792 E20.07035
G1 X99.306 Y87.868 E20.08128
G1 X99.756 Y88.409 E20.12827
G1 X100.512 Y89.598 E20.22239
G1 X101.083 Y90.212 E20.27842
G1 X101.495 Y90.347 E20.30739
G1 X101.902 Y90.227 E20.33574
G1 X102.413 Y89.673 E20.38605
G1 X102.982 Y88.720 E20.46025
G1 X103.316 Y88.248 E20.49886
G1 X103.779 Y87.881 E20.53831
G1 X104.005 Y87.836 E20.55374
G1 X104.318 Y87.890 E20.57496
G1 X105.309 Y88.371 E20.64853
G1 X107.517 Y89.787 E20.82376
G1 X108.499 Y90.252 E20.89635
G1 X109.005 Y90.338 E20.93067
G1 X109.483 Y90.243 E20.96321
G1 X110.160 Y89.697 E21.02131
G1 X110.779 Y88.754 E21.09667
G1 X111.095 Y88.221 E21.13804
G1 X111.506 Y87.780 E21.17831
G1 X111.966 Y88.220 E21.22080
G1 X112.833 Y89.495 E21.32383
G1 X113.180 Y89.870 E21.35797
G1 X113.732 Y90.238 E21.40226
G1 X114.330 Y90.438 E21.44444
G1 X115.548 Y90.614 E21.52659
G1 X116.801 Y90.629 E21.61032
G1 X117.668 Y90.569 E21.66842
G1 X118.782 Y90.387 E21.74381
G1 X119.700 Y90.135 E21.80741
G1 X119.700 Y119.700 E23.78253
G1 X90.203 Y119.700 E25.75309
G1 X90.203 Y110.491 E26.36829
G1 X91.516 Y110.004 E26.46185
G1 X91.516 Y114.551 E26.76563
G1 X91.835 Y114.551 E26.78695
G1 X91.588 Y114.968 E26.81929
G1 X91.503 Y115.278 E26.84082
G1 X91.477 Y115.653 E26.86593
G1 X91.524 Y116.110 E26.89660
G1 X91.675 Y116.459 E26.92201
G1 X91.516 Y116.459 E26.93266
G1 X91.516 Y119.203 E27.11598
G1 X92.680 Y119.203 E27.19374
G1 X92.680 Y118.484 E27.24177
G1 X94.399 Y118.484 E27.35661
G1 X94.399 Y117.178 E27.44386
G1 X93.704 Y117.178 E27.49031
G1 X93.648 Y116.927 E27.50752
G1 X93.928 Y116.795 E27.52823
G1 X94.157 Y116.590 E27.54876
G1 X94.319 Y116.324 E27.56954
G1 X94.411 Y116.011 E27.59137
G1 X94.439 Y115.647 E27.61574
G1 X94.376 Y115.086 E27.65343
G1 X94.277 Y114.834 E27.67150
G1 X94.095 Y114.585 E27.69214
G1 X94.399 Y114.585 E27.71246
G1 X94.399 Y110.447 E27.98890
G1 X92.680 Y110.447 E28.10374
G1 X92.680 Y109.572 E28.16221
G1 X94.380 Y108.941 E28.28336
G1 X94.380 Y107.120 E28.40498
G1 X94.400 Y107.120 E28.40632
G1 X94.400 Y100.901 E28.82178
G1 X93.588 Y100.901 E28.87605
G1 X93.745 Y100.709 F3600.000
G1 E26.87605 F2400.00000
G92 E0
G1 X92.999 Y100.861 F3600.000
G1 X93.003 Y99.370
G1 X91.448 Y97.801
G1 X88.880 Y94.526
G1 X88.704 Y94.535
G1 X87.221 Y93.374
G1 X88.064 Y88.237
G1 X87.911 Y86.171
G1 X87.480 Y84.320
G1 X87.974 Y81.173
G1 X89.352 Y83.778
G1 X89.305 Y83.989
G1 E2.00000 F2400.00000
G1 F1800
G1 X88.006 Y84.676 E2.09813
G1 X88.547 Y86.369 E2.21690
G1 X89.640 Y88.836 E2.39715
G1 X90.217 Y89.850 E2.47512
G1 X90.613 Y90.380 E2.51929
G1 X91.164 Y90.845 E2.56745
G1 X91.961 Y90.908 E2.62082
G1 X92.574 Y90.517 E2.66944
G1 X93.096 Y89.830 E2.72707
G1 X93.604 Y88.974 E2.79354
G1 X93.782 Y88.721 E2.81425
G1 X93.978 Y89.123 E2.84419
G1 X95.017 Y91.945 E3.04507
G1 X95.647 Y93.037 E3.12927
G1 X96.501 Y93.475 E3.19336
G1 X97.351 Y93.035 E3.25733
G1 X98.009 Y91.886 E3.34577
G1 X99.047 Y89.060 E3.54689
G1 X99.260 Y88.627 E3.57915
G1 X100.086 Y89.927 E3.68207
G1 X100.785 Y90.678 E3.75060
G1 X101.486 Y90.908 E3.79992
G1 X102.196 Y90.699 E3.84931
G1 X102.844 Y89.996 E3.91322
G1 X103.432 Y89.013 E3.98973
G1 X103.709 Y88.620 E4.02185
G1 X104.011 Y88.380 E4.04761
G1 X104.153 Y88.405 E4.05721
G1 X105.046 Y88.839 E4.12356
G1 X107.257 Y90.256 E4.29897
G1 X108.336 Y90.767 E4.37879
G1 X109.013 Y90.883 E4.42464
G1 X109.717 Y90.742 E4.47258
G1 X110.562 Y90.061 E4.54509
G1 X111.233 Y89.037 E4.62689
G1 X111.532 Y88.534 E4.66596
G1 X112.412 Y89.830 E4.77060
G1 X112.830 Y90.281 E4.81168
G1 X113.494 Y90.723 E4.86497
G1 X114.206 Y90.961 E4.91513
G1 X115.506 Y91.149 E5.00285
G1 X116.816 Y91.165 E5.09039
G1 X117.730 Y91.102 E5.15162
G1 X118.897 Y90.911 E5.23057
G1 X119.164 Y90.838 E5.24912
G1 X119.164 Y119.164 E7.14150
G1 X94.935 Y119.164 E8.76018
G1 X94.935 Y116.642 E8.92866
G1 X94.784 Y116.642 E8.93874
G1 X94.940 Y116.108 E8.97594
G1 X94.977 Y115.638 E9.00746
G1 X94.935 Y115.261 E9.03275
G1 X94.935 Y109.911 E9.39016
G1 X94.064 Y109.911 E9.44830
G1 X94.017 Y109.647 E9.46626
G1 X94.916 Y109.313 E9.53032
G1 X94.916 Y107.656 E9.64105
G1 X94.936 Y107.656 E9.64238
G1 X94.936 Y100.365 E10.12941
G1 X94.774 Y100.365 E10.14022
G1 X94.942 Y99.796 E10.17989
G1 X94.976 Y99.373 E10.20825
G1 X94.938 Y98.890 E10.24060
G1 X94.796 Y98.422 E10.27325
G1 X94.513 Y98.002 E10.30714
G1 X94.098 Y97.667 E10.34274
G1 X93.577 Y97.452 E10.38036
G1 X92.978 Y97.384 E10.42066
G1 X92.294 Y97.488 E10.46690
G1 X91.884 Y97.669 E10.49684
G1 X91.564 Y97.919 E10.52395
G1 X91.314 Y98.230 E10.55061
G1 X91.128 Y98.619 E10.57942
G1 X91.018 Y99.322 E10.62692
G1 X91.063 Y99.724 E10.65394
G1 X91.063 Y101.591 E10.77870
G1 X88.015 Y102.021 E10.98436
G1 X85.620 Y97.868 E11.30461
G1 X84.789 Y102.590 E11.62490
G1 X80.100 Y103.585 E11.94511
G1 X84.333 Y105.833 E12.26529
G1 X83.832 Y110.599 E12.58539
G1 X85.062 Y109.410 E12.69969
G1 X85.062 Y119.164 E13.35135
G1 X78.388 Y119.164 E13.79726
G1 X78.324 Y118.926 E13.81374
G1 X81.039 Y117.358 E14.02317
G1 X81.039 Y112.340 E14.35840
G1 X76.693 Y109.832 E14.69359
G1 X72.346 Y112.340 E15.02885
G1 X72.346 Y117.358 E15.36408
G1 X75.062 Y118.926 E15.57356
G1 X74.998 Y119.164 E15.59003
G1 X70.836 Y119.164 E15.86810
G1 X70.836 Y87.271 E17.99873
G1 X71.816 Y88.251 E18.09132
G1 X73.000 Y88.568 E18.17322
G1 X74.184 Y88.251 E18.25512
G1 X75.051 Y87.384 E18.33703
G1 X75.127 Y87.103 E18.35651
G1 X75.373 Y87.103 E18.37300
G1 X75.516 Y87.634 E18.40977
G1 X76.566 Y88.684 E18.50897
G1 X78.000 Y89.068 E18.60816
G1 X79.434 Y88.684 E18.70736
G1 X80.484 Y87.634 E18.80655
G1 X80.627 Y87.102 E18.84336
G1 X80.873 Y87.102 E18.85984
G1 X81.083 Y87.884 E18.91393
G1 X82.316 Y89.117 E19.03041
G1 X84.000 Y89.568 E19.14691
G1 X85.683 Y89.117 E19.26331
G1 X86.917 Y87.885 E19.37983
G1 X87.368 Y86.200 E19.49634
G1 X86.917 Y84.516 E19.61277
G1 X85.683 Y83.283 E19.72933
G1 X84.000 Y82.832 E19.84575
G1 X82.315 Y83.283 E19.96226
G1 X81.083 Y84.517 E20.07878
G1 X80.873 Y85.299 E20.13285
G1 X80.627 Y85.299 E20.14933
G1 X80.484 Y84.767 E20.18610
G1 X79.435 Y83.716 E20.28533
G1 X78.000 Y83.332 E20.38455
G1 X76.565 Y83.716 E20.48376
G1 X75.516 Y84.767 E20.58300
G1 X75.373 Y85.298 E20.61976
G1 X75.127 Y85.298 E20.63623
G1 X75.051 Y85.017 E20.65569
G1 X74.185 Y84.149 E20.73765
G1 X73.000 Y83.832 E20.81957
G1 X71.815 Y84.149 E20.90150
G1 X70.836 Y85.130 E20.99414
G1 X70.836 Y70.836 E21.94909
G1 X119.164 Y70.836 E25.17771
G1 X119.164 Y85.251 E26.14072
G1 X117.675 Y86.257 E26.26075
G1 X116.784 Y86.649 E26.32580
G1 X116.504 Y86.687 E26.34469
G1 X116.248 Y86.651 E26.36200
G1 X115.375 Y86.232 E26.42666
G1 X113.977 Y85.222 E26.54191
G1 X113.298 Y84.775 E26.59623
G1 X112.239 Y84.288 E26.67405
G1 X111.503 Y84.185 E26.72370
G1 X110.767 Y84.286 E26.77331
G1 X109.745 Y84.716 E26.84742
G1 X108.623 Y85.425 E26.93608
G1 X107.338 Y86.301 E27.03996
G1 X106.632 Y86.660 E27.09289
G1 X106.526 Y86.678 E27.10005
G1 X106.116 Y86.313 E27.13675
G1 X105.290 Y84.993 E27.24075
G1 X104.691 Y84.361 E27.29893
G1 X104.007 Y84.160 E27.34658
G1 X103.313 Y84.354 E27.39469
G1 X102.512 Y85.162 E27.47070
G1 X101.521 Y86.547 E27.58449
G1 X101.299 Y86.322 E27.60560
G1 X100.678 Y85.421 E27.67876
G1 X100.316 Y84.943 E27.71880
G1 X99.668 Y84.348 E27.77754
G1 X99.000 Y84.161 E27.82387
G1 X98.312 Y84.354 E27.87161
G1 X97.508 Y85.166 E27.94797
G1 X96.973 Y85.936 E28.01057
G1 X96.518 Y86.545 E28.06138
G1 X96.298 Y86.322 E28.08234
G1 X95.676 Y85.420 E28.15550
G1 X95.315 Y84.943 E28.19554
G1 X94.667 Y84.348 E28.25428
G1 X93.999 Y84.161 E28.30061
G1 X93.311 Y84.354 E28.34835
G1 X92.506 Y85.166 E28.42474
G1 X91.973 Y85.936 E28.48730
G1 X91.492 Y86.581 E28.54101
G1 X91.190 Y86.325 E28.56741
