; generated by Slic3r Prusa Edition 1.42.0-beta+ on 2019-10-12 at 10:12:21

; 

; external perimeters extrusion width = 0.45mm
; perimeters extrusion width = 0.45mm
; infill extrusion width = 0.45mm
; solid infill extrusion width = 0.45mm
; top infill extrusion width = 0.40mm
; first layer extrusion width = 0.80mm

M73 P0 R67
M73 Q0 S68
M201 X9000 Y9000 Z500 E10000 ; sets maximum accelerations, mm/sec^2
M203 X500 Y500 Z12 E120 ; sets maximum feedrates, mm/sec
M204 P1500 R1500 T1500 ; sets acceleration (P, T) and retract acceleration (R), mm/sec^2
M205 X10.00 Y10.00 Z0.20 E2.50 ; sets the jerk limits, mm/sec
M205 S0 T0 ; sets the minimum extruding and travel feed rate, mm/sec
M107
M104 S190 ; set temperature
G28 ; home all axes
G1 Z5 F5000 ; lift nozzle
; Filament gcode
M109 S190 ; set temperature and wait for it to be reached
G21 ; set units to millimeters
G90 ; use absolute coordinates
M82 ; use absolute distances for extrusion
G92 E0
G1 Z0.400 F4800.000
G1 E-2.00000 F2400.00000
M73 Q0 S68
M73 P0 R67
G92 E0
G1 X65.246 Y65.779 F4800.000
G1 E2.00000 F2400.00000
G1 F1800
G1 X66.189 Y64.912 E2.15214
G1 X67.281 Y64.254 E2.30354
G1 X68.488 Y63.825 E2.45568
G1 X69.750 Y63.648 E2.60708
G1 X120.006 Y63.643 E8.57573
G1 X121.183 Y63.754 E8.71609
G1 X122.319 Y64.081 E8.85644
G1 X123.379 Y64.616 E8.99754
G1 X124.318 Y65.334 E9.13790
G1 X125.107 Y66.214 E9.27825
G1 X125.722 Y67.230 E9.41935
G1 X126.136 Y68.337 E9.55970
G1 X126.338 Y69.502 E9.70006
G1 X126.354 Y120.187 E15.71970
G1 X126.226 Y121.287 E15.85122
G1 X125.908 Y122.347 E15.98273
G1 X125.414 Y123.332 E16.11351
G1 X124.754 Y124.221 E16.24503
G1 X123.776 Y125.114 E16.40232
G1 X122.635 Y125.785 E16.55960
G1 X121.373 Y126.207 E16.71763
G1 X120.057 Y126.357 E16.87492
G1 X69.813 Y126.354 E22.84209
G1 X68.713 Y126.226 E22.97361
G1 X67.653 Y125.908 E23.10513
G1 X66.668 Y125.414 E23.23590
G1 X65.779 Y124.754 E23.36742
G1 X64.886 Y123.776 E23.52471
G1 X64.215 Y122.635 E23.68200
G1 X63.793 Y121.373 E23.84002
G1 X63.643 Y120.057 E23.99731
G1 X63.646 Y69.813 E29.96449
G1 X63.774 Y68.713 E30.09600
G1 X64.092 Y67.653 E30.22752
G1 X64.586 Y66.668 E30.35830
G1 X65.210 Y65.827 E30.48269
G1 E28.48269 F2400.00000
G92 E0
G1 X92.830 Y117.376 F4800.000
G1 E2.00000 F2400.00000
G1 F1800
G1 X92.623 Y116.326 E2.05706
G1 X92.609 Y116.218 E2.06245
G1 X92.596 Y116.111 E2.06712
G1 X92.583 Y116.003 E2.07108
G1 X92.582 Y116.003 E2.07109
G1 X92.573 Y115.927 E2.07336
G1 X92.525 Y115.833 E2.07667
G1 X92.435 Y115.744 E2.08061
G1 X92.414 Y115.715 E2.08258
G1 X92.372 Y115.576 E2.09044
G1 X92.371 Y115.532 E2.09282
G1 X92.370 Y115.488 E2.09502
G1 X92.428 Y115.354 E2.10167
G1 X93.328 Y114.334 F4800.000
G1 F1800
G1 X93.032 Y114.497 E2.13158
G1 X92.998 Y114.518 F4800.000
G1 F1800
G1 X93.032 Y114.497 E2.13627
G1 X93.001 Y114.165 F4800.000
G1 F1800
G1 X93.173 Y115.097 E2.18236
G1 X93.184 Y115.177 E2.18606
G1 X93.194 Y115.256 E2.18935
G1 X93.537 Y115.937 E2.22196
G1 X93.511 Y115.950 F4800.000
G1 F1800
G1 X93.284 Y115.301 E2.28173
G1 X93.057 Y114.652 E2.34631
G1 X93.039 Y114.612 E2.35078
G1 X93.020 Y114.572 E2.35555
G1 X92.998 Y114.518 E2.36156
G1 X92.812 Y114.463 E2.38175
G1 X92.746 Y114.449 E2.38849
G1 X92.667 Y114.441 E2.39599
G1 X92.533 Y114.410 E2.40872
G1 E0.40872 F2400.00000
G92 E0
G1 X91.416 Y119.600 F4800.000
G1 E2.00000 F2400.00000
G1 F1800
G1 X90.303 Y119.600 E2.13219
G1 X90.303 Y110.561 E3.20573
G1 X91.416 Y110.148 E3.34673
G1 X91.416 Y114.651 E3.88157
G1 X91.572 Y114.651 E3.90010
G1 X91.404 Y115.261 E3.97530
G1 X91.377 Y115.655 E4.02215
G1 X91.450 Y116.359 E4.10622
G1 X91.416 Y116.359 E4.11022
G1 X91.416 Y119.540 E4.48801
G1 X91.070 Y119.399 F4800.000
G1 E2.48801 F2400.00000
G92 E0
G1 X86.301 Y109.297 F4800.000
G1 E2.00000 F2400.00000
G1 F1800
G1 X86.301 Y120.000 E3.05727
G1 X87.100 Y120.000 F4800.000
G1 F1800
G1 X87.100 Y109.297 E4.11631
G1 X88.050 Y109.297 F4800.000
G1 F1800
G1 X88.050 Y120.000 E5.35335
G1 X89.100 Y120.000 F4800.000
G1 F1800
G1 X89.100 Y109.297 E6.41239
G1 E4.41239 F2400.00000
G92 E0
G1 X93.158 Y106.813 F4800.000
G1 E2.00000 F2400.00000
G1 F1800
G1 X92.354 Y106.510 E2.10207
G1 X92.418 Y106.158 E2.14452
G1 X93.158 Y106.158 E2.23239
G1 X93.158 Y106.753 E2.30308
G1 X92.804 Y106.628 F4800.000
G1 X91.960 Y106.104
G1 F1800
G1 X91.991 Y105.758 E2.31283
G1 X92.813 Y104.675 F4800.000
G1 F1800
G1 X94.100 Y105.034 E2.42975
G1 X93.582 Y104.660 F4800.000
G1 F1800
G1 X93.244 Y104.763 E2.45779
G1 X92.905 Y104.866 E2.48424
G1 X92.826 Y104.881 E2.48988
G1 X92.748 Y104.896 E2.49510
G1 X92.700 Y104.902 E2.49797
G1 X92.529 Y104.912 E2.50792
G1 X92.488 Y104.912 E2.51018
G1 X92.292 Y104.899 E2.52178
G1 X92.237 Y104.891 E2.52526
G1 X92.005 Y104.839 E2.54054
G1 X91.499 Y106.187 F4800.000
G1 F1800
G1 X90.267 Y105.721 E2.69695
G1 X90.267 Y106.611 E2.80256
G1 X89.935 Y106.687 E2.84302
G1 X89.033 Y104.840 E3.08717
G1 X91.499 Y102.102 E3.52484
G1 X91.499 Y103.917 E3.74047
G1 X91.584 Y104.677 E3.83126
G1 X91.499 Y104.677 E3.84135
G1 X91.499 Y106.127 E4.01351
G1 X91.216 Y105.904 F4800.000
G1 X90.785 Y105.154
G1 F1800
G1 X89.984 Y104.851 E4.11518
G1 X90.785 Y103.962 E4.25730
G1 X90.785 Y105.094 E4.39170
G1 E2.39170 F2400.00000
G92 E0
G1 X93.218 Y99.342 F4800.000
G1 E2.00000 F2400.00000
G1 F1800
G1 X93.209 Y99.342 E2.00124
G1 X93.194 Y99.342 E2.00318
G1 X93.130 Y99.349 E2.01237
G1 X92.959 Y99.377 E2.03766
G1 X92.187 Y100.350 F4800.000
G1 F1800
G1 X92.504 Y100.434 E2.04849
G1 X92.532 Y100.452 E2.04976
G1 X92.560 Y100.471 E2.05125
G1 X92.588 Y100.489 E2.05295
G1 X92.616 Y100.507 E2.05486
G1 X92.638 Y100.518 E2.05652
G1 X92.661 Y100.530 E2.05837
G1 X92.684 Y100.541 E2.06041
G1 X92.707 Y100.552 E2.06264
G1 X92.729 Y100.563 E2.06507
G1 X92.752 Y100.575 E2.06769
G1 X92.775 Y100.586 E2.07050
G1 X92.797 Y100.597 E2.07350
G1 X92.820 Y100.608 E2.07669
G1 X92.884 Y100.523 E2.09068
G1 X92.947 Y100.438 E2.10526
G1 X93.610 Y99.245 E2.29464
G1 E0.29464 F2400.00000
G92 E0
G1 X90.457 Y107.755 F4800.000
G1 E2.00000 F2400.00000
G1 F1800
G1 X91.268 Y108.009 E2.10102
G1 X91.268 Y108.325 E2.13849
G1 X90.267 Y108.634 E2.26290
G1 X90.267 Y108.897 E2.29414
G1 X85.498 Y108.897 E2.86053
G1 X85.498 Y119.600 E4.13167
G1 X76.921 Y119.600 E5.15033
G1 X76.836 Y119.282 E5.18938
G1 X80.603 Y117.107 E5.70603
G1 X80.603 Y112.592 E6.24224
G1 X76.693 Y110.335 E6.77842
G1 X72.782 Y112.592 E7.31470
G1 X72.782 Y117.107 E7.85092
G1 X76.550 Y119.282 E8.36767
G1 X76.465 Y119.600 E8.40672
G1 X70.400 Y119.600 E9.12704
G1 X70.400 Y70.400 E14.97028
G1 X119.600 Y70.400 E20.81353
G1 X119.600 Y85.482 E22.60476
G1 X117.887 Y86.639 E22.85030
G1 X116.904 Y87.072 E22.97784
G1 X116.504 Y87.127 E23.02585
G1 X116.120 Y87.073 E23.07183
G1 X115.150 Y86.607 E23.19968
G1 X113.729 Y85.581 E23.40784
G1 X113.082 Y85.155 E23.49983
G1 X112.116 Y84.711 E23.62617
G1 X111.503 Y84.625 E23.69967
G1 X110.883 Y84.710 E23.77389
G1 X109.945 Y85.105 E23.89478
G1 X108.869 Y85.784 E24.04594
G1 X107.559 Y86.678 E24.23427
G1 X106.771 Y87.077 E24.33919
G1 X106.506 Y87.124 E24.37122
G1 X106.334 Y87.090 E24.39204
G1 X105.780 Y86.598 E24.47995
G1 X104.942 Y85.259 E24.66755
G1 X104.455 Y84.746 E24.75159
G1 X104.004 Y84.613 E24.80749
G1 X103.541 Y84.742 E24.86450
G1 X102.847 Y85.442 E24.98163
G1 X101.854 Y86.831 E25.18438
G1 X101.502 Y87.147 E25.24054
G1 X100.963 Y86.603 E25.33148
G1 X100.324 Y85.676 E25.46515
G1 X99.990 Y85.235 E25.53081
G1 X99.450 Y84.740 E25.61788
G1 X99.000 Y84.614 E25.67337
G1 X98.540 Y84.742 E25.73007
G1 X97.845 Y85.444 E25.84745
G1 X97.328 Y86.189 E25.95513
G1 X96.828 Y86.858 E26.05427
G1 X96.501 Y87.147 E26.10612
G1 X95.962 Y86.603 E26.19709
G1 X95.323 Y85.676 E26.33076
G1 X94.989 Y85.235 E26.39641
G1 X94.449 Y84.740 E26.48349
G1 X93.999 Y84.614 E26.53897
G1 X93.539 Y84.742 E26.59567
G1 X92.844 Y85.445 E26.71308
G1 X92.328 Y86.189 E26.82069
G1 X91.829 Y86.858 E26.91978
G1 X91.493 Y87.152 E26.97273
G1 X90.877 Y86.631 E27.06856
G1 X89.191 Y84.542 E27.38743
G1 X88.532 Y84.890 E27.47598
G1 X88.957 Y86.218 E27.64155
G1 X90.029 Y88.637 E27.95582
G1 X90.583 Y89.611 E28.08890
G1 X90.932 Y90.079 E28.15825
G1 X91.338 Y90.422 E28.22134
G1 X91.850 Y90.462 E28.28228
G1 X92.274 Y90.192 E28.34209
G1 X92.735 Y89.585 E28.43254
G1 X93.238 Y88.736 E28.54979
G1 X93.850 Y87.867 E28.67600
G1 X94.380 Y88.952 E28.81941
G1 X95.414 Y91.762 E29.17495
G1 X95.960 Y92.708 E29.30476
G1 X96.500 Y92.985 E29.37677
G1 X97.037 Y92.707 E29.44856
G1 X97.613 Y91.702 E29.58620
G1 X98.647 Y88.887 E29.94235
G1 X99.158 Y87.847 E30.08000
G1 X99.675 Y88.468 E30.17601
G1 X100.432 Y89.660 E30.34367
G1 X101.027 Y90.299 E30.44742
G1 X101.494 Y90.452 E30.50568
G1 X101.957 Y90.315 E30.56307
G1 X102.493 Y89.734 E30.65702
G1 X103.067 Y88.774 E30.78986
G1 X103.390 Y88.317 E30.85631
G1 X103.822 Y87.974 E30.92175
G1 X104.007 Y87.938 E30.94410
G1 X104.287 Y87.986 E30.97795
G1 X105.262 Y88.459 E31.10659
G1 X107.470 Y89.875 E31.41815
G1 X108.469 Y90.348 E31.54937
G1 X109.007 Y90.440 E31.61421
G1 X109.527 Y90.336 E31.67716
G1 X110.235 Y89.765 E31.78524
G1 X110.867 Y88.801 E31.92215
G1 X111.176 Y88.281 E31.99401
G1 X111.510 Y87.923 E32.05216
G1 X111.890 Y88.286 E32.11455
G1 X112.754 Y89.558 E32.29722
G1 X113.116 Y89.948 E32.36040
G1 X113.689 Y90.329 E32.44211
G1 X114.307 Y90.536 E32.51958
G1 X115.540 Y90.714 E32.66748
G1 X116.809 Y90.729 E32.81823
G1 X117.678 Y90.669 E32.92170
G1 X118.803 Y90.485 E33.05700
G1 X119.600 Y90.266 E33.15523
G1 X119.600 Y119.600 E36.63910
G1 X92.780 Y119.600 E39.82438
G1 X92.780 Y118.584 E39.94505
G1 X94.499 Y118.584 E40.14920
G1 X94.499 Y117.078 E40.32806
G1 X93.762 Y117.078 E40.41558
G1 X94.235 Y116.654 E40.49098
G1 X94.411 Y116.365 E40.53123
G1 X94.510 Y116.029 E40.57283
G1 X94.540 Y115.645 E40.61853
G1 X94.474 Y115.062 E40.68823
G1 X94.326 Y114.685 E40.73630
G1 X94.499 Y114.685 E40.75683
G1 X94.499 Y110.347 E41.27204
G1 X92.780 Y110.347 E41.47619
G1 X92.780 Y109.641 E41.56001
G1 X94.480 Y109.010 E41.77537
G1 X94.480 Y107.220 E41.98799
G1 X94.500 Y107.220 E41.99036
G1 X94.500 Y100.801 E42.75271
G1 X93.736 Y100.801 E42.84348
G1 X94.262 Y100.285 E42.93104
G1 X94.421 Y100.021 E42.96760
G1 X94.511 Y99.716 E43.00546
G1 X94.539 Y99.372 E43.04636
G1 X94.507 Y98.971 E43.09414
G1 X94.398 Y98.611 E43.13881
G1 X94.188 Y98.299 E43.18349
G1 X93.873 Y98.045 E43.23153
G1 X93.468 Y97.878 E43.28364
G1 X92.986 Y97.824 E43.34117
G1 X92.424 Y97.909 E43.40874
G1 X92.111 Y98.045 E43.44928
G1 X91.872 Y98.231 E43.48526
G1 X91.685 Y98.464 E43.52067
G1 X91.549 Y98.749 E43.55829
G1 X91.457 Y99.331 E43.62823
G1 X91.512 Y99.818 E43.68644
G1 X91.641 Y100.107 E43.72398
G1 X91.499 Y100.107 E43.74084
G1 X91.499 Y101.970 E43.96206
G1 X87.785 Y102.493 E44.40756
G1 X85.842 Y99.124 E44.86949
G1 X85.167 Y102.955 E45.33148
G1 X81.363 Y103.762 E45.79334
G1 X84.797 Y105.587 E46.25518
G1 X84.390 Y109.453 E46.71697
G1 X87.187 Y106.752 E47.17875
G1 X90.739 Y108.334 E47.64056
G1 X90.483 Y107.809 E47.70989
G1 X90.545 Y108.145 F4800.000
G1 E45.70989 F2400.00000
G92 E0
G1 X89.377 Y83.635 F4800.000
G1 E2.00000 F2400.00000
G1 F1800
G1 X87.670 Y84.538 E2.22942
G1 X88.288 Y86.472 E2.47055
G1 X89.390 Y88.959 E2.79364
G1 X89.984 Y90.003 E2.93625
G1 X90.409 Y90.572 E3.02064
G1 X91.053 Y91.115 E3.12067
G1 X92.032 Y91.193 E3.23725
G1 X92.766 Y90.725 E3.34071
G1 X93.328 Y89.984 E3.45116
G1 X93.742 Y89.287 E3.54744
G1 X94.765 Y92.066 E3.89913
G1 X95.447 Y93.247 E4.06116
G1 X96.501 Y93.789 E4.20189
G1 X97.552 Y93.244 E4.34240
G1 X98.262 Y92.004 E4.51216
G1 X99.293 Y89.198 E4.86719
G1 X99.865 Y90.098 E4.99381
G1 X100.630 Y90.920 E5.12722
G1 X101.482 Y91.200 E5.23369
G1 X102.348 Y90.945 E5.34095
G1 X103.068 Y90.163 E5.46715
G1 X103.666 Y89.164 E5.60544
G1 X103.914 Y88.813 E5.65651
G1 X104.082 Y88.680 E5.68193
G1 X104.912 Y89.083 E5.79148
G1 X107.123 Y90.501 E6.10348
G1 X108.252 Y91.036 E6.25181
G1 X109.017 Y91.166 E6.34399
G1 X109.838 Y91.002 E6.44345
G1 X110.771 Y90.250 E6.58570
G1 X111.552 Y89.059 E6.75487
G1 X112.194 Y90.004 E6.89053
G1 X112.650 Y90.496 E6.97016
G1 X113.372 Y90.976 E7.07321
G1 X114.142 Y91.233 E7.16959
G1 X115.484 Y91.427 E7.33068
G1 X116.830 Y91.444 E7.49046
G1 X117.761 Y91.379 E7.60131
G1 X118.886 Y91.195 E7.73671
G1 X118.886 Y118.886 E11.02538
G1 X95.213 Y118.886 E13.83687
G1 X95.213 Y116.189 E14.15714
G1 X95.257 Y115.633 E14.22343
G1 X95.213 Y115.246 E14.26971
G1 X95.213 Y109.633 E14.93631
G1 X95.194 Y109.633 E14.93856
G1 X95.194 Y107.934 E15.14031
G1 X95.214 Y107.934 E15.14268
G1 X95.214 Y99.857 E16.10195
G1 X95.256 Y99.373 E16.15967
G1 X95.213 Y98.838 E16.22341
G1 X95.051 Y98.301 E16.29000
G1 X94.720 Y97.811 E16.36021
G1 X94.241 Y97.425 E16.43326
G1 X93.648 Y97.179 E16.50958
G1 X92.973 Y97.103 E16.59024
G1 X92.225 Y97.216 E16.68005
G1 X91.742 Y97.426 E16.74255
G1 X91.367 Y97.720 E16.79910
G1 X91.076 Y98.081 E16.85417
G1 X90.859 Y98.536 E16.91408
G1 X90.737 Y99.316 E17.00780
G1 X90.785 Y99.739 E17.05844
G1 X90.785 Y101.349 E17.24963
G1 X88.162 Y101.719 E17.56416
G1 X85.479 Y97.065 E18.20218
G1 X84.547 Y102.356 E18.84027
G1 X79.293 Y103.471 E19.47819
G1 X84.036 Y105.991 E20.11606
G1 X83.475 Y111.331 E20.75371
G1 X84.784 Y110.066 E20.96989
G1 X84.784 Y118.886 E22.01737
G1 X79.586 Y118.886 E22.63473
G1 X79.501 Y118.568 E22.67378
G1 X81.317 Y117.519 E22.92293
G1 X81.317 Y112.180 E23.55708
G1 X76.693 Y109.511 E24.19117
G1 X72.068 Y112.180 E24.82539
G1 X72.068 Y117.519 E25.45956
G1 X73.885 Y118.568 E25.70873
G1 X73.800 Y118.886 E25.74778
G1 X71.114 Y118.886 E26.06673
G1 X71.114 Y87.944 E29.74156
G1 X71.672 Y88.501 E29.83518
G1 X73.000 Y88.856 E29.99849
G1 X74.328 Y88.501 E30.16181
G1 X75.159 Y87.671 E30.30122
G1 X76.421 Y88.934 E30.51334
G1 X78.000 Y89.356 E30.70741
G1 X79.579 Y88.934 E30.90147
G1 X80.659 Y87.854 E31.08286
G1 X82.171 Y89.367 E31.33697
G1 X84.000 Y89.856 E31.56180
G1 X85.827 Y89.367 E31.78646
G1 X87.167 Y88.029 E32.01134
G1 X87.656 Y86.200 E32.23620
G1 X87.167 Y84.372 E32.46090
G1 X85.828 Y83.033 E32.68585
G1 X84.000 Y82.544 E32.91055
G1 X82.171 Y83.033 E33.13541
G1 X80.659 Y84.547 E33.38959
G1 X79.579 Y83.466 E33.57106
G1 X78.000 Y83.044 E33.76517
G1 X76.421 Y83.466 E33.95928
G1 X75.159 Y84.730 E34.17146
G1 X74.329 Y83.899 E34.31094
G1 X73.000 Y83.544 E34.47432
G1 X71.671 Y83.899 E34.63770
G1 X71.114 Y84.457 E34.73131
G1 X71.114 Y71.114 E36.31595
G1 X118.886 Y71.114 E41.98956
G1 X118.886 Y85.103 E43.65092
G1 X117.540 Y86.012 E43.84377
G1 X116.708 Y86.378 E43.95179
G1 X116.505 Y86.406 E43.97616
G1 X116.329 Y86.382 E43.99719
G1 X115.517 Y85.991 E44.10428
G1 X114.135 Y84.993 E44.30672
G1 X113.430 Y84.528 E44.40701
G1 X112.318 Y84.018 E44.55225
G1 X111.504 Y83.904 E44.64992
G1 X110.693 Y84.015 E44.74708
G1 X109.614 Y84.470 E44.88617
G1 X108.477 Y85.187 E45.04582
G1 X107.195 Y86.062 E45.23017
G1 X106.595 Y86.366 E45.31011
G1 X106.331 Y86.132 E45.35192
G1 X105.509 Y84.820 E45.53584
G1 X104.841 Y84.115 E45.65119
G1 X104.009 Y83.870 E45.75429
G1 X103.167 Y84.105 E45.85803
G1 X102.299 Y84.980 E46.00438
G1 X101.491 Y86.110 E46.16944
G1 X100.903 Y85.257 E46.29249
G1 X100.520 Y84.752 E46.36773
G1 X99.807 Y84.098 E46.48273
G1 X99.000 Y83.872 E46.58223
G1 X98.166 Y84.106 E46.68510
G1 X97.293 Y84.986 E46.83232
G1 X96.492 Y86.114 E46.99665
G1 X95.902 Y85.257 E47.12026
G1 X95.519 Y84.752 E47.19551
G1 X94.806 Y84.098 E47.31050
G1 X93.999 Y83.872 E47.41000
G1 X93.165 Y84.106 E47.51288
G1 X92.292 Y84.986 E47.66015
G1 X91.437 Y86.188 E47.83527
G1 X89.415 Y83.682 E48.21773
G1 X89.564 Y82.729 F4800.000
G1 F1800
G1 X87.582 Y83.777 E48.48399
G1 X86.197 Y82.393 E48.71652
G1 X84.000 Y81.804 E48.98666
G1 X81.801 Y82.393 E49.25699
G1 X80.659 Y83.537 E49.44901
G1 X79.949 Y82.826 E49.56834
G1 X78.000 Y82.304 E49.80791
G1 X76.051 Y82.826 E50.04749
G1 X75.159 Y83.719 E50.19750
G1 X74.699 Y83.259 E50.27482
G1 X73.000 Y82.804 E50.48366
G1 X71.828 Y83.118 E50.62770
G1 X71.828 Y71.828 E51.96848
G1 X118.172 Y71.828 E57.47246
G1 X118.172 Y84.723 E59.00394
G1 X117.194 Y85.384 E59.14412
G1 X116.520 Y85.681 E59.23157
G1 X115.883 Y85.375 E59.31544
G1 X114.541 Y84.405 E59.51216
G1 X113.777 Y83.902 E59.62075
G1 X112.521 Y83.326 E59.78490
G1 X111.505 Y83.183 E59.90674
G1 X110.503 Y83.320 E60.02684
G1 X109.282 Y83.834 E60.18413
