; generated by PrusaSlicer 2.0.0+ on 2019-10-12 at 14:58:49

; 

; external perimeters extrusion width = 0.45mm
; perimeters extrusion width = 0.45mm
; infill extrusion width = 0.45mm
; solid infill extrusion width = 0.45mm
; top infill extrusion width = 0.40mm
; first layer extrusion width = 0.60mm

M201 X9000 Y9000 Z500 E10000 ; sets maximum accelerations, mm/sec^2
M203 X500 Y500 Z12 E120 ; sets maximum feedrates, mm/sec
M204 P1500 R1500 T1500 ; sets acceleration (P, T) and retract acceleration (R), mm/sec^2
M205 X10.00 Y10.00 Z0.20 E2.50 ; sets the jerk limits, mm/sec
M205 S0 T0 ; sets the minimum extruding and travel feed rate, mm/sec
M107
M104 S180 ; set temperature
G28 ; home all axes
G1 Z5 F5000 ; lift nozzle
; Filament gcode
M109 S180 ; set temperature and wait for it to be reached
G21 ; set units to millimeters
G90 ; use absolute coordinates
M82 ; use absolute distances for extrusion
G92 E0
G1 Z0.300 F4800.000
M600
G1 E-2.00000 F2400.00000
G92 E0
G1 X66.643 Y54.790 F4800.000
G1 E2.00000 F2400.00000
G1 F1800
G1 X66.814 Y53.886 E2.06151
G1 X67.114 Y53.021 E2.12261
G1 X67.539 Y52.205 E2.18412
G1 X68.079 Y51.459 E2.24563
G1 X68.723 Y50.801 E2.30714
G1 X69.456 Y50.244 E2.36866
G1 X70.263 Y49.800 E2.43017
G1 X71.126 Y49.480 E2.49168
G1 X71.935 Y49.302 E2.54701
G1 X72.767 Y49.233 E2.60275
G1 X85.804 Y49.232 E3.47370
G1 X87.238 Y49.400 E3.57017
G1 X88.596 Y49.892 E3.66665
G1 X116.204 Y64.395 E5.75004
G1 X117.403 Y65.080 E5.84225
G1 X118.679 Y66.018 E5.94807
G1 X119.840 Y67.107 E6.05439
G1 X120.716 Y68.142 E6.14500
G1 X121.994 Y70.148 E6.30389
G1 X122.585 Y71.460 E6.40001
G1 X123.068 Y72.977 E6.50640
G1 X129.249 Y99.458 E8.32300
G1 X129.424 Y100.844 E8.41630
G1 X129.374 Y102.194 E8.50657
G1 X127.719 Y110.664 E9.08309
G1 X127.358 Y111.903 E9.16931
G1 X126.809 Y113.083 E9.25624
G1 X126.158 Y114.069 E9.33518
G1 X125.309 Y115.021 E9.42042
G1 X124.329 Y115.832 E9.50540
G1 X117.403 Y120.480 E10.06266
G1 X85.411 Y140.087 E12.56933
G1 X84.225 Y140.545 E12.65430
G1 X82.970 Y140.755 E12.73927
G1 X75.389 Y140.727 E13.24575
G1 X74.252 Y140.490 E13.32332
G1 X73.174 Y140.043 E13.40130
G1 X69.504 Y137.785 E13.68915
G1 X68.766 Y137.235 E13.75066
G1 X67.951 Y136.382 E13.82947
G1 X67.311 Y135.391 E13.90827
G1 X66.867 Y134.298 E13.98707
G1 X66.635 Y133.135 E14.06629
G1 X66.643 Y54.850 E19.29615
G1 E17.29615 F2400.00000
G92 E0
G1 X82.270 Y132.198 F4800.000
G1 E2.00000 F2400.00000
G1 F1800
G1 X82.270 Y134.200 E2.13374
G1 X76.399 Y134.200 E2.52600
G1 X76.399 Y132.198 E2.65975
G1 X73.171 Y132.198 E2.87538
G1 X73.171 Y55.800 E7.97918
G1 X85.498 Y55.800 E8.80269
G1 X85.498 Y132.198 E13.90649
G1 X82.330 Y132.198 E14.11811
G1 X81.921 Y132.393 F4800.000
G1 X81.735 Y131.662
G1 F1800
G1 X81.735 Y133.664 E14.25186
G1 X76.934 Y133.664 E14.57255
G1 X76.934 Y131.662 E14.70630
G1 X73.706 Y131.662 E14.92193
G1 X73.706 Y56.336 E19.95416
G1 X84.962 Y56.336 E20.70611
G1 X84.962 Y131.662 E25.73835
G1 X81.795 Y131.662 E25.94997
G1 X81.735 Y131.127 F4800.000
G1 F1800
G1 X81.706 Y131.127 E25.95191
G1 X81.706 Y56.871 E30.91258
G1 X84.427 Y56.871 E31.09436
G1 X84.427 Y131.127 E36.05503
G1 X81.795 Y131.127 E36.23087
G1 X81.199 Y131.869 F4800.000
G1 F1800
G1 X81.199 Y133.129 E36.31501
G1 X77.470 Y133.129 E36.56414
G1 X77.470 Y131.869 E36.64828
G1 X81.139 Y131.869 E36.89341
G1 E34.89341 F2400.00000
G92 E0
G1 X76.963 Y131.127 F4800.000
G1 E2.00000 F2400.00000
G1 F1800
G1 X74.242 Y131.127 E2.18178
G1 X74.242 Y56.871 E7.14245
G1 X76.963 Y56.871 E7.32424
G1 X76.963 Y131.067 E12.28090
G1 X78.034 Y130.798 F4800.000
G1 F1800
G1 X78.034 Y57.198 E17.19778
G1 X80.634 Y57.198 E17.37147
G1 X80.634 Y130.798 E22.28835
G1 X78.094 Y130.798 E22.45803
G1 X77.686 Y130.994 F4800.000
G1 E20.45803 F2400.00000
G92 E0
G1 X77.499 Y56.662 F4800.000
G1 E2.00000 F2400.00000
G1 F1800
G1 X81.170 Y56.662 E2.24526
G1 X81.170 Y131.334 E7.23370
G1 X77.499 Y131.334 E7.47896
G1 X77.499 Y56.722 E12.46339
G1 X76.802 Y58.125 F4800.000
G1 F1800
G1 X75.950 Y57.273 E12.54463
G1 X75.186 Y57.273 E12.59617
G1 X76.561 Y58.648 E12.72731
G1 X76.561 Y59.413 E12.77884
G1 X74.644 Y57.495 E12.96168
G1 X74.644 Y58.260 E13.01321
G1 X76.561 Y60.177 E13.19605
G1 X76.561 Y60.942 E13.24758
G1 X74.644 Y59.024 E13.43041
G1 X74.644 Y59.788 E13.48195
G1 X76.561 Y61.706 E13.66478
G1 X76.561 Y62.470 E13.71632
G1 X74.644 Y60.553 E13.89915
G1 X74.644 Y61.317 E13.95069
G1 X76.561 Y63.235 E14.13352
G1 X76.561 Y63.999 E14.18505
G1 X74.644 Y62.082 E14.36789
G1 X74.644 Y62.846 E14.41942
G1 X76.561 Y64.764 E14.60226
G1 X76.561 Y65.528 E14.65379
G1 X74.644 Y63.610 E14.83663
G1 X74.644 Y64.375 E14.88816
G1 X76.561 Y66.293 E15.07100
G1 X76.561 Y67.057 E15.12253
G1 X74.644 Y65.139 E15.30536
G1 X74.644 Y65.904 E15.35690
G1 X76.561 Y67.821 E15.53973
G1 X76.561 Y68.586 E15.59127
G1 X74.644 Y66.668 E15.77410
G1 X74.644 Y67.432 E15.82564
G1 X76.561 Y69.350 E16.00847
G1 X76.561 Y70.115 E16.06000
G1 X74.644 Y68.197 E16.24284
G1 X74.644 Y68.961 E16.29437
G1 X76.561 Y70.879 E16.47721
G1 X76.561 Y71.643 E16.52874
G1 X74.644 Y69.726 E16.71158
G1 X74.644 Y70.490 E16.76311
G1 X76.561 Y72.408 E16.94595
G1 X76.561 Y73.172 E16.99748
G1 X74.644 Y71.254 E17.18031
G1 X74.644 Y72.019 E17.23185
G1 X76.561 Y73.937 E17.41468
G1 X76.561 Y74.701 E17.46622
G1 X74.644 Y72.783 E17.64905
G1 X74.644 Y73.548 E17.70059
G1 X76.561 Y75.465 E17.88342
G1 X76.561 Y76.230 E17.93495
G1 X74.644 Y74.312 E18.11779
G1 X74.644 Y75.077 E18.16932
G1 X76.561 Y76.994 E18.35216
G1 X76.561 Y77.759 E18.40369
G1 X74.644 Y75.841 E18.58653
G1 X74.644 Y76.605 E18.63806
G1 X76.561 Y78.523 E18.82089
G1 X76.561 Y79.287 E18.87243
G1 X74.644 Y77.370 E19.05526
G1 X74.644 Y78.134 E19.10680
G1 X76.561 Y80.052 E19.28963
G1 X76.561 Y80.816 E19.34117
G1 X74.644 Y78.899 E19.52400
G1 X74.644 Y79.663 E19.57553
G1 X76.561 Y81.581 E19.75837
G1 X76.561 Y82.345 E19.80990
G1 X74.644 Y80.427 E19.99274
G1 X74.644 Y81.192 E20.04427
G1 X76.561 Y83.110 E20.22711
G1 X76.561 Y83.874 E20.27864
G1 X74.644 Y81.956 E20.46148
G1 X74.644 Y82.721 E20.51301
G1 X76.561 Y84.638 E20.69584
G1 X76.561 Y85.403 E20.74738
G1 X74.644 Y83.485 E20.93021
G1 X74.644 Y84.249 E20.98175
G1 X76.561 Y86.167 E21.16458
G1 X76.561 Y86.932 E21.21612
G1 X74.644 Y85.014 E21.39895
G1 X74.644 Y85.778 E21.45048
G1 X76.561 Y87.696 E21.63332
G1 X76.561 Y88.460 E21.68485
G1 X74.644 Y86.543 E21.86769
G1 X74.644 Y87.307 E21.91922
G1 X76.561 Y89.225 E22.10206
G1 X76.561 Y89.989 E22.15359
G1 X74.644 Y88.072 E22.33643
G1 X74.644 Y88.836 E22.38796
G1 X76.561 Y90.754 E22.57079
G1 X76.561 Y91.518 E22.62233
G1 X74.644 Y89.600 E22.80516
G1 X74.644 Y90.365 E22.85670
G1 X76.561 Y92.282 E23.03953
G1 X76.561 Y93.047 E23.09107
G1 X74.644 Y91.129 E23.27390
G1 X74.644 Y91.894 E23.32543
G1 X76.561 Y93.811 E23.50827
G1 X76.561 Y94.576 E23.55980
G1 X74.644 Y92.658 E23.74264
G1 X74.644 Y93.422 E23.79417
G1 X76.561 Y95.340 E23.97701
G1 X76.561 Y96.104 E24.02854
G1 X74.644 Y94.187 E24.21137
G1 X74.644 Y94.951 E24.26291
G1 X76.561 Y96.869 E24.44574
G1 X76.561 Y97.633 E24.49728
G1 X74.644 Y95.716 E24.68011
G1 X74.644 Y96.480 E24.73165
G1 X76.561 Y98.398 E24.91448
G1 X76.561 Y99.162 E24.96601
G1 X74.644 Y97.244 E25.14885
G1 X74.644 Y98.009 E25.20038
G1 X76.561 Y99.927 E25.38322
G1 X76.561 Y100.691 E25.43475
G1 X74.644 Y98.773 E25.61759
G1 X74.644 Y99.538 E25.66912
G1 X76.561 Y101.455 E25.85196
G1 X76.561 Y102.220 E25.90349
G1 X74.644 Y100.302 E26.08632
G1 X74.644 Y101.066 E26.13786
G1 X76.561 Y102.984 E26.32069
G1 X76.561 Y103.749 E26.37223
G1 X74.644 Y101.831 E26.55506
G1 X74.644 Y102.595 E26.60660
G1 X76.561 Y104.513 E26.78943
G1 X76.561 Y105.277 E26.84096
G1 X74.644 Y103.360 E27.02380
G1 X74.644 Y104.124 E27.07533
G1 X76.561 Y106.042 E27.25817
G1 X76.561 Y106.806 E27.30970
G1 X74.644 Y104.889 E27.49254
G1 X74.644 Y105.653 E27.54407
G1 X76.561 Y107.571 E27.72691
G1 X76.561 Y108.335 E27.77844
G1 X74.644 Y106.417 E27.96127
G1 X74.644 Y107.182 E28.01281
G1 X76.561 Y109.099 E28.19564
G1 X76.561 Y109.864 E28.24718
G1 X74.644 Y107.946 E28.43001
G1 X74.644 Y108.711 E28.48154
G1 X76.561 Y110.628 E28.66438
G1 X76.561 Y111.393 E28.71591
G1 X74.644 Y109.475 E28.89875
G1 X74.644 Y110.239 E28.95028
G1 X76.561 Y112.157 E29.13312
G1 X76.561 Y112.921 E29.18465
G1 X74.644 Y111.004 E29.36749
G1 X74.644 Y111.768 E29.41902
G1 X76.561 Y113.686 E29.60185
G1 X76.561 Y114.450 E29.65339
G1 X74.644 Y112.533 E29.83622
G1 X74.644 Y113.297 E29.88776
G1 X76.561 Y115.215 E30.07059
G1 X76.561 Y115.979 E30.12213
G1 X74.644 Y114.061 E30.30496
G1 X74.644 Y114.826 E30.35649
G1 X76.561 Y116.744 E30.53933
G1 X76.561 Y117.508 E30.59086
G1 X74.644 Y115.590 E30.77370
G1 X74.644 Y116.355 E30.82523
G1 X76.561 Y118.272 E31.00807
G1 X76.561 Y119.037 E31.05960
G1 X74.644 Y117.119 E31.24244
G1 X74.644 Y117.883 E31.29397
G1 X76.561 Y119.801 E31.47680
G1 X76.561 Y120.566 E31.52834
G1 X74.644 Y118.648 E31.71117
G1 X74.644 Y119.412 E31.76271
G1 X76.561 Y121.330 E31.94554
G1 X76.561 Y122.094 E31.99708
G1 X74.644 Y120.177 E32.17991
G1 X74.644 Y120.941 E32.23144
G1 X76.561 Y122.859 E32.41428
G1 X76.561 Y123.623 E32.46581
G1 X74.644 Y121.706 E32.64865
G1 X74.644 Y122.470 E32.70018
G1 X76.561 Y124.388 E32.88302
G1 X76.561 Y125.152 E32.93455
G1 X74.644 Y123.234 E33.11738
G1 X74.644 Y123.999 E33.16892
G1 X76.561 Y125.916 E33.35175
G1 X76.561 Y126.681 E33.40329
G1 X74.644 Y124.763 E33.58612
G1 X74.644 Y125.528 E33.63766
G1 X76.561 Y127.445 E33.82049
G1 X76.561 Y128.210 E33.87202
G1 X74.644 Y126.292 E34.05486
G1 X74.644 Y127.056 E34.10639
G1 X76.561 Y128.974 E34.28923
G1 X76.561 Y129.738 E34.34076
G1 X74.644 Y127.821 E34.52360
G1 X74.644 Y128.585 E34.57513
G1 X76.561 Y130.503 E34.75797
G1 X76.561 Y130.725 E34.77294
G1 X76.019 Y130.725 E34.80950
G1 X74.644 Y129.350 E34.94064
G1 X74.644 Y130.114 E34.99217
G1 X75.496 Y130.966 E35.07341
G1 E33.07341 F2400.00000
G92 E0
G1 X77.738 Y132.499 F4800.000
G1 E2.00000 F2400.00000
G1 F1800
G1 X80.931 Y132.499 E2.28835
G1 E0.28835 F2400.00000
G92 E0
G1 X82.959 Y130.966 F4800.000
G1 E2.00000 F2400.00000
G1 F1800
G1 X82.107 Y130.114 E2.08124
G1 X82.107 Y129.350 E2.13277
G1 X83.483 Y130.725 E2.26391
G1 X84.025 Y130.725 E2.30047
G1 X84.025 Y130.503 E2.31545
G1 X82.107 Y128.585 E2.49828
G1 X82.107 Y127.821 E2.54981
G1 X84.025 Y129.738 E2.73265
G1 X84.025 Y128.974 E2.78418
G1 X82.107 Y127.056 E2.96702
G1 X82.107 Y126.292 E3.01855
G1 X84.025 Y128.210 E3.20139
G1 X84.025 Y127.445 E3.25292
G1 X82.107 Y125.528 E3.43576
G1 X82.107 Y124.763 E3.48729
G1 X84.025 Y126.681 E3.67012
G1 X84.025 Y125.916 E3.72166
G1 X82.107 Y123.999 E3.90449
G1 X82.107 Y123.234 E3.95603
G1 X84.025 Y125.152 E4.13886
G1 X84.025 Y124.388 E4.19040
G1 X82.107 Y122.470 E4.37323
G1 X82.107 Y121.706 E4.42476
G1 X84.025 Y123.623 E4.60760
G1 X84.025 Y122.859 E4.65913
G1 X82.107 Y120.941 E4.84197
G1 X82.107 Y120.177 E4.89350
G1 X84.025 Y122.094 E5.07634
G1 X84.025 Y121.330 E5.12787
G1 X82.107 Y119.412 E5.31071
G1 X82.107 Y118.648 E5.36224
G1 X84.025 Y120.566 E5.54508
G1 X84.025 Y119.801 E5.59661
G1 X82.107 Y117.883 E5.77944
G1 X82.107 Y117.119 E5.83098
G1 X84.025 Y119.037 E6.01381
G1 X84.025 Y118.272 E6.06535
G1 X82.107 Y116.355 E6.24818
G1 X82.107 Y115.590 E6.29972
G1 X84.025 Y117.508 E6.48255
G1 X84.025 Y116.744 E6.53408
G1 X82.107 Y114.826 E6.71692
G1 X82.107 Y114.061 E6.76845
G1 X84.025 Y115.979 E6.95129
G1 X84.025 Y115.215 E7.00282
G1 X82.107 Y113.297 E7.18566
G1 X82.107 Y112.533 E7.23719
G1 X84.025 Y114.450 E7.42003
G1 X84.025 Y113.686 E7.47156
G1 X82.107 Y111.768 E7.65439
G1 X82.107 Y111.004 E7.70593
G1 X84.025 Y112.921 E7.88876
G1 X84.025 Y112.157 E7.94030
G1 X82.107 Y110.239 E8.12313
G1 X82.107 Y109.475 E8.17467
G1 X84.025 Y111.393 E8.35750
G1 X84.025 Y110.628 E8.40904
G1 X82.107 Y108.711 E8.59187
G1 X82.107 Y107.946 E8.64340
G1 X84.025 Y109.864 E8.82624
G1 X84.025 Y109.099 E8.87777
G1 X82.107 Y107.182 E9.06061
G1 X82.107 Y106.417 E9.11214
G1 X84.025 Y108.335 E9.29498
G1 X84.025 Y107.571 E9.34651
G1 X82.107 Y105.653 E9.52935
G1 X82.107 Y104.889 E9.58088
G1 X84.025 Y106.806 E9.76371
G1 X84.025 Y106.042 E9.81525
G1 X82.107 Y104.124 E9.99808
G1 X82.107 Y103.360 E10.04962
G1 X84.025 Y105.277 E10.23245
G1 X84.025 Y104.513 E10.28399
G1 X82.107 Y102.595 E10.46682
G1 X82.107 Y101.831 E10.51835
G1 X84.025 Y103.749 E10.70119
G1 X84.025 Y102.984 E10.75272
G1 X82.107 Y101.066 E10.93556
G1 X82.107 Y100.302 E10.98709
G1 X84.025 Y102.220 E11.16993
G1 X84.025 Y101.455 E11.22146
G1 X82.107 Y99.538 E11.40430
G1 X82.107 Y98.773 E11.45583
G1 X84.025 Y100.691 E11.63867
G1 X84.025 Y99.927 E11.69020
G1 X82.107 Y98.009 E11.87303
G1 X82.107 Y97.244 E11.92457
G1 X84.025 Y99.162 E12.10740
G1 X84.025 Y98.398 E12.15894
G1 X82.107 Y96.480 E12.34177
G1 X82.107 Y95.716 E12.39331
G1 X84.025 Y97.633 E12.57614
G1 X84.025 Y96.869 E12.62767
G1 X82.107 Y94.951 E12.81051
G1 X82.107 Y94.187 E12.86204
G1 X84.025 Y96.104 E13.04488
G1 X84.025 Y95.340 E13.09641
G1 X82.107 Y93.422 E13.27925
G1 X82.107 Y92.658 E13.33078
G1 X84.025 Y94.576 E13.51362
G1 X84.025 Y93.811 E13.56515
G1 X82.107 Y91.894 E13.74798
G1 X82.107 Y91.129 E13.79952
G1 X84.025 Y93.047 E13.98235
G1 X84.025 Y92.282 E14.03389
G1 X82.107 Y90.365 E14.21672
G1 X82.107 Y89.600 E14.26826
G1 X84.025 Y91.518 E14.45109
G1 X84.025 Y90.754 E14.50263
G1 X82.107 Y88.836 E14.68546
G1 X82.107 Y88.072 E14.73699
G1 X84.025 Y89.989 E14.91983
G1 X84.025 Y89.225 E14.97136
G1 X82.107 Y87.307 E15.15420
G1 X82.107 Y86.543 E15.20573
G1 X84.025 Y88.460 E15.38857
G1 X84.025 Y87.696 E15.44010
G1 X82.107 Y85.778 E15.62294
G1 X82.107 Y85.014 E15.67447
G1 X84.025 Y86.932 E15.85730
G1 X84.025 Y86.167 E15.90884
G1 X82.107 Y84.249 E16.09167
G1 X82.107 Y83.485 E16.14321
G1 X84.025 Y85.403 E16.32604
G1 X84.025 Y84.638 E16.37758
G1 X82.107 Y82.721 E16.56041
G1 X82.107 Y81.956 E16.61194
G1 X84.025 Y83.874 E16.79478
G1 X84.025 Y83.110 E16.84631
G1 X82.107 Y81.192 E17.02915
G1 X82.107 Y80.427 E17.08068
G1 X84.025 Y82.345 E17.26352
G1 X84.025 Y81.581 E17.31505
G1 X82.107 Y79.663 E17.49789
G1 X82.107 Y78.899 E17.54942
G1 X84.025 Y80.816 E17.73226
G1 X84.025 Y80.052 E17.78379
G1 X82.107 Y78.134 E17.96662
G1 X82.107 Y77.370 E18.01816
G1 X84.025 Y79.287 E18.20099
G1 X84.025 Y78.523 E18.25253
G1 X82.107 Y76.605 E18.43536
G1 X82.107 Y75.841 E18.48690
G1 X84.025 Y77.759 E18.66973
G1 X84.025 Y76.994 E18.72126
G1 X82.107 Y75.077 E18.90410
G1 X82.107 Y74.312 E18.95563
G1 X84.025 Y76.230 E19.13847
G1 X84.025 Y75.465 E19.19000
G1 X82.107 Y73.548 E19.37284
G1 X82.107 Y72.783 E19.42437
G1 X84.025 Y74.701 E19.60721
G1 X84.025 Y73.937 E19.65874
G1 X82.107 Y72.019 E19.84157
G1 X82.107 Y71.254 E19.89311
G1 X84.025 Y73.172 E20.07594
G1 X84.025 Y72.408 E20.12748
G1 X82.107 Y70.490 E20.31031
G1 X82.107 Y69.726 E20.36185
G1 X84.025 Y71.643 E20.54468
G1 X84.025 Y70.879 E20.59622
G1 X82.107 Y68.961 E20.77905
G1 X82.107 Y68.197 E20.83058
G1 X84.025 Y70.115 E21.01342
G1 X84.025 Y69.350 E21.06495
G1 X82.107 Y67.432 E21.24779
G1 X82.107 Y66.668 E21.29932
G1 X84.025 Y68.586 E21.48216
G1 X84.025 Y67.821 E21.53369
G1 X82.107 Y65.904 E21.71653
G1 X82.107 Y65.139 E21.76806
G1 X84.025 Y67.057 E21.95089
G1 X84.025 Y66.293 E22.00243
G1 X82.107 Y64.375 E22.18526
G1 X82.107 Y63.610 E22.23680
G1 X84.025 Y65.528 E22.41963
G1 X84.025 Y64.764 E22.47117
G1 X82.107 Y62.846 E22.65400
G1 X82.107 Y62.082 E22.70553
G1 X84.025 Y63.999 E22.88837
G1 X84.025 Y63.235 E22.93990
G1 X82.107 Y61.317 E23.12274
G1 X82.107 Y60.553 E23.17427
G1 X84.025 Y62.470 E23.35711
G1 X84.025 Y61.706 E23.40864
G1 X82.107 Y59.788 E23.59148
G1 X82.107 Y59.024 E23.64301
G1 X84.025 Y60.942 E23.82585
G1 X84.025 Y60.177 E23.87738
G1 X82.107 Y58.260 E24.06021
G1 X82.107 Y57.495 E24.11175
G1 X84.025 Y59.413 E24.29458
G1 X84.025 Y58.648 E24.34612
G1 X82.649 Y57.273 E24.47726
G1 X83.414 Y57.273 E24.52879
G1 X84.266 Y58.125 E24.61003
G1 E22.61003 F2400.00000
G92 E0
G1 X104.343 Y72.962 F4800.000
G1 E2.00000 F2400.00000
G1 F1800
G1 X104.798 Y72.254 E2.05625
G1 X105.338 Y71.609 E2.11246
G1 X105.955 Y71.035 E2.16872
G1 X106.640 Y70.545 E2.22499
G1 X107.381 Y70.143 E2.28131
G1 X108.164 Y69.838 E2.33741
G1 X108.981 Y69.634 E2.39370
G1 X109.817 Y69.534 E2.44999
G1 X110.633 Y69.538 E2.50447
G1 X111.495 Y69.649 E2.56251
