; generated by PrusaSlicer 2.0.0+ on 2020-03-21 at 15:49:14

; 

; external perimeters extrusion width = 0.45mm
; perimeters extrusion width = 0.45mm
; infill extrusion width = 0.45mm
; solid infill extrusion width = 0.45mm
; top infill extrusion width = 0.40mm
; first layer extrusion width = 0.40mm

M201 X9000 Y9000 Z500 E10000 ; sets maximum accelerations, mm/sec^2
M203 X500 Y500 Z12 E120 ; sets maximum feedrates, mm/sec
M204 P1500 R1500 T1500 ; sets acceleration (P, T) and retract acceleration (R), mm/sec^2
M205 X10.00 Y10.00 Z0.20 E2.50 ; sets the jerk limits, mm/sec
M205 S0 T0 ; sets the minimum extruding and travel feed rate, mm/sec
M107
M190 S52 ; set bed temperature and wait for it to be reached
M104 S180 ; set temperature
G28 ; home all axes
G1 Z5 F5000 ; lift nozzle
; Filament gcode
M109 S180 ; set temperature and wait for it to be reached
G21 ; set units to millimeters
G90 ; use absolute coordinates
M82 ; use absolute distances for extrusion
G92 E0
G1 Z0.200 F3600.000
G1 E-2.00000 F2400.00000
G92 E0
G1 X89.361 Y64.979 F3600.000
G1 E2.00000 F2400.00000
G1 F1800
G1 X90.677 Y64.331 E2.04356
G1 X91.819 Y63.940 E2.07939
G1 X93.541 Y63.616 E2.13141
G1 X95.009 Y63.541 E2.17506
G1 X96.465 Y63.616 E2.21834
G1 X98.190 Y63.943 E2.27048
G1 X99.722 Y64.500 E2.31889
G1 X100.643 Y64.981 E2.34974
G1 X101.746 Y65.803 E2.39056
G1 X102.645 Y66.721 E2.42871
G1 X103.407 Y67.772 E2.46726
G1 X104.151 Y69.287 E2.51738
G1 X113.004 Y98.485 E3.42328
G1 X113.207 Y99.466 E3.45302
G1 X114.892 Y110.981 E3.79857
G1 X114.970 Y113.214 E3.86489
G1 X114.777 Y115.341 E3.92830
G1 X114.272 Y116.990 E3.97954
G1 X113.817 Y117.875 E4.00907
G1 X113.343 Y118.569 E4.03403
G1 X112.680 Y119.320 E4.06378
G1 X111.956 Y119.928 E4.09183
G1 X110.808 Y120.636 E4.13189
G1 X98.236 Y126.827 E4.54796
G1 X96.586 Y127.379 E4.59963
G1 X94.996 Y127.554 E4.64712
G1 X93.410 Y127.378 E4.69449
G1 X91.761 Y126.826 E4.74613
G1 X79.191 Y120.636 E5.16214
G1 X78.009 Y119.903 E5.20346
G1 X77.290 Y119.290 E5.23151
G1 X76.624 Y118.527 E5.26159
G1 X76.156 Y117.829 E5.28655
G1 X75.697 Y116.920 E5.31675
G1 X75.209 Y115.265 E5.36800
G1 X75.072 Y114.210 E5.39960
G1 X75.030 Y113.026 E5.43475
G1 X75.110 Y110.971 E5.49582
G1 X76.793 Y99.463 E5.84114
G1 X76.998 Y98.478 E5.87100
G1 X85.853 Y69.277 E6.77702
G1 X86.596 Y67.767 E6.82697
G1 X87.359 Y66.716 E6.86555
G1 X88.255 Y65.802 E6.90355
G1 X89.313 Y65.015 E6.94270
G1 E4.94270 F2400.00000
G92 E0
G1 X103.804 Y111.240 F3600.000
G1 E2.00000 F2400.00000
G1 F1800
G1 X104.352 Y111.445 E2.01739
G1 X104.952 Y111.328 E2.03552
G1 X105.381 Y111.275 E2.04837
G1 X106.921 Y110.935 E2.09519
G1 X107.503 Y110.848 E2.11266
G1 X107.815 Y110.836 E2.12194
G1 X108.073 Y110.881 E2.12971
G1 X108.291 Y110.998 E2.13706
G1 X108.477 Y111.309 E2.14784
G1 X108.506 Y111.404 E2.15077
G1 X108.568 Y111.816 E2.16316
G1 X108.590 Y112.255 E2.17619
G1 X108.592 Y113.210 E2.20457
G1 X108.570 Y113.697 E2.21903
G1 X108.505 Y114.179 E2.23346
G1 X108.447 Y114.390 E2.23997
G1 X108.324 Y114.632 E2.24803
G1 X108.220 Y114.757 E2.25284
G1 X107.942 Y114.937 E2.26269
G1 X107.600 Y115.056 E2.27344
G1 X105.626 Y115.503 E2.33352
G1 X104.509 Y115.686 E2.36713
G1 X103.982 Y115.710 E2.38280
G1 X103.482 Y115.650 E2.39775
G1 X103.218 Y115.545 E2.40619
G1 X102.988 Y115.518 E2.41308
G1 X101.898 Y115.073 E2.44802
G1 X100.901 Y114.910 E2.47801
G1 X100.559 Y114.939 E2.48820
G1 X100.314 Y114.929 E2.49548
G1 X99.650 Y115.011 E2.51535
G1 X98.950 Y115.184 E2.53676
G1 X98.459 Y115.398 E2.55266
G1 X98.181 Y115.688 E2.56459
G1 X98.043 Y115.776 E2.56944
G1 X97.877 Y116.124 E2.58090
G1 X97.793 Y116.225 E2.58480
G1 X97.695 Y116.535 E2.59444
G1 X97.633 Y116.663 E2.59867
G1 X97.541 Y117.114 E2.61235
G1 X97.506 Y117.580 E2.62623
G1 X97.513 Y119.081 E2.67077
G1 X97.419 Y119.618 E2.68697
G1 X97.281 Y119.890 E2.69602
G1 X97.114 Y120.097 E2.70392
G1 X96.926 Y120.258 E2.71127
G1 X96.271 Y120.686 E2.73448
G1 X95.844 Y120.906 E2.74876
G1 X95.402 Y121.096 E2.76306
G1 X95.197 Y121.153 E2.76936
G1 X95.000 Y121.174 E2.77525
G1 X94.803 Y121.153 E2.78113
G1 X94.598 Y121.096 E2.78744
G1 X94.156 Y120.906 E2.80173
G1 X93.729 Y120.686 E2.81602
G1 X93.074 Y120.258 E2.83923
G1 X92.886 Y120.098 E2.84658
G1 X92.719 Y119.890 E2.85447
G1 X92.581 Y119.618 E2.86352
G1 X92.487 Y119.081 E2.87973
G1 X92.494 Y117.580 E2.92427
G1 X92.459 Y117.114 E2.93815
G1 X92.368 Y116.663 E2.95183
G1 X92.306 Y116.535 E2.95605
G1 X92.207 Y116.225 E2.96570
G1 X92.123 Y116.124 E2.96960
G1 X91.957 Y115.776 E2.98106
G1 X91.819 Y115.688 E2.98590
G1 X91.541 Y115.398 E2.99784
G1 X91.050 Y115.184 E3.01374
G1 X90.350 Y115.011 E3.03515
G1 X89.686 Y114.929 E3.05502
G1 X89.441 Y114.939 E3.06230
G1 X89.099 Y114.910 E3.07248
G1 X88.102 Y115.073 E3.10248
G1 X87.012 Y115.518 E3.13742
G1 X86.782 Y115.545 E3.14430
G1 X86.518 Y115.650 E3.15275
G1 X86.015 Y115.711 E3.16778
G1 X85.495 Y115.687 E3.18324
G1 X84.373 Y115.503 E3.21701
G1 X82.399 Y115.056 E3.27709
G1 X82.058 Y114.937 E3.28781
G1 X81.780 Y114.757 E3.29766
G1 X81.676 Y114.632 E3.30246
G1 X81.553 Y114.390 E3.31053
G1 X81.495 Y114.179 E3.31703
G1 X81.430 Y113.697 E3.33146
G1 X81.408 Y113.210 E3.34593
G1 X81.410 Y112.255 E3.37431
G1 X81.432 Y111.816 E3.38734
G1 X81.523 Y111.309 E3.40263
G1 X81.709 Y110.998 E3.41341
G1 X81.927 Y110.881 E3.42077
G1 X82.185 Y110.836 E3.42853
G1 X82.499 Y110.848 E3.43787
G1 X82.860 Y110.895 E3.44869
G1 X84.619 Y111.275 E3.50212
G1 X85.048 Y111.328 E3.51495
G1 X85.648 Y111.445 E3.53308
G1 X86.196 Y111.240 E3.55047
G1 X86.535 Y110.777 E3.56750
G1 X86.741 Y110.067 E3.58948
G1 X86.750 Y109.842 E3.59617
G1 X86.784 Y109.696 E3.60062
G1 X86.845 Y108.979 E3.62197
G1 X86.944 Y106.427 E3.69781
G1 X86.951 Y105.793 E3.71664
G1 X86.909 Y104.926 E3.74241
G1 X86.865 Y104.680 E3.74981
G1 X86.859 Y104.524 E3.75445
G1 X86.770 Y104.201 E3.76441
G1 X86.606 Y103.731 E3.77918
G1 X86.298 Y103.384 E3.79295
G1 X85.823 Y103.167 E3.80846
G1 X85.574 Y103.078 E3.81631
G1 X84.751 Y102.975 E3.84094
G1 X84.196 Y102.835 E3.85792
G1 X83.745 Y102.675 E3.87212
G1 X83.635 Y102.615 E3.87584
G1 X83.391 Y102.423 E3.88507
G1 X83.201 Y102.161 E3.89467
G1 X83.108 Y101.891 E3.90317
G1 X83.071 Y101.596 E3.91199
G1 X83.047 Y101.044 E3.92840
G1 X83.063 Y100.734 E3.93760
G1 X83.098 Y100.429 E3.94674
G1 X83.151 Y100.255 E3.95213
G1 X83.190 Y100.015 E3.95935
G1 X83.231 Y99.915 E3.96256
G1 X83.282 Y99.673 E3.96990
G1 X83.336 Y99.557 E3.97369
G1 X83.396 Y99.321 E3.98091
G1 X83.465 Y99.186 E3.98542
G1 X83.598 Y98.740 E3.99925
G1 X83.764 Y98.449 E4.00918
G1 X83.907 Y98.289 E4.01556
G1 X84.156 Y98.112 E4.02465
G1 X84.459 Y98.180 E4.03385
G1 X84.868 Y98.189 E4.04599
G1 X84.943 Y98.262 E4.04912
G1 X85.048 Y98.311 E4.05254
G1 X85.228 Y98.508 E4.06045
G1 X85.723 Y98.675 E4.07598
G1 X86.018 Y98.958 E4.08811
G1 X86.537 Y99.107 E4.10416
G1 X87.524 Y99.622 E4.13719
G1 X88.467 Y99.763 E4.16550
G1 X89.923 Y98.646 E4.22000
G1 X90.115 Y98.270 E4.23251
G1 X90.274 Y98.107 E4.23928
G1 X90.808 Y96.899 E4.27850
G1 X91.036 Y96.091 E4.30343
G1 X91.115 Y95.415 E4.32363
G1 X91.105 Y94.772 E4.34274
G1 X91.035 Y93.874 E4.36948
G1 X90.741 Y92.386 E4.41452
G1 X90.478 Y90.034 E4.48479
G1 X90.342 Y88.184 E4.53987
G1 X90.321 Y87.608 E4.55697
G1 X90.328 Y86.913 E4.57761
G1 X90.381 Y86.301 E4.59585
G1 X90.446 Y85.832 E4.60991
G1 X90.832 Y83.546 E4.67875
G1 X91.017 Y81.688 E4.73417
G1 X91.153 Y79.510 E4.79897
G1 X91.239 Y76.816 E4.87899
G1 X91.329 Y74.747 E4.94051
G1 X91.423 Y73.529 E4.97677
G1 X91.575 Y72.430 E5.00972
G1 X91.654 Y72.063 E5.02085
G1 X91.771 Y71.656 E5.03344
G1 X91.914 Y71.309 E5.04457
G1 X92.086 Y71.014 E5.05471
G1 X92.290 Y70.762 E5.06434
G1 X92.525 Y70.545 E5.07383
G1 X92.740 Y70.390 E5.08171
G1 X93.403 Y70.119 E5.10297
G1 X93.957 Y69.993 E5.11984
G1 X94.479 Y69.932 E5.13543
G1 X95.450 Y69.930 E5.16427
G1 X96.044 Y69.994 E5.18199
G1 X96.601 Y70.120 E5.19896
G1 X96.841 Y70.207 E5.20654
G1 X97.258 Y70.389 E5.22004
G1 X97.475 Y70.545 E5.22799
G1 X97.710 Y70.762 E5.23747
G1 X97.914 Y71.014 E5.24710
G1 X98.086 Y71.309 E5.25725
G1 X98.229 Y71.656 E5.26838
G1 X98.345 Y72.060 E5.28087
G1 X98.510 Y72.960 E5.30804
G1 X98.577 Y73.527 E5.32498
G1 X98.671 Y74.747 E5.36131
G1 X98.761 Y76.816 E5.42282
G1 X98.847 Y79.510 E5.50284
G1 X98.983 Y81.688 E5.56764
G1 X99.168 Y83.546 E5.62306
G1 X99.554 Y85.832 E5.69190
G1 X99.619 Y86.301 E5.70596
G1 X99.672 Y86.913 E5.72421
G1 X99.679 Y87.608 E5.74484
G1 X99.658 Y88.184 E5.76194
G1 X99.523 Y90.034 E5.81702
G1 X99.259 Y92.386 E5.88729
G1 X98.965 Y93.874 E5.93233
G1 X98.895 Y94.772 E5.95907
G1 X98.885 Y95.415 E5.97818
G1 X98.965 Y96.091 E5.99838
G1 X99.192 Y96.899 E6.02332
G1 X99.726 Y98.107 E6.06253
G1 X99.885 Y98.270 E6.06930
G1 X100.077 Y98.646 E6.08182
G1 X101.533 Y99.763 E6.13631
G1 X102.477 Y99.622 E6.16463
G1 X103.463 Y99.107 E6.19765
G1 X103.982 Y98.958 E6.21370
G1 X104.277 Y98.675 E6.22584
G1 X104.772 Y98.508 E6.24136
G1 X104.952 Y98.311 E6.24927
G1 X105.057 Y98.262 E6.25270
G1 X105.132 Y98.189 E6.25582
G1 X105.541 Y98.180 E6.26796
G1 X105.844 Y98.112 E6.27717
G1 X105.999 Y98.210 E6.28262
G1 X106.239 Y98.454 E6.29277
G1 X106.402 Y98.740 E6.30256
G1 X106.535 Y99.186 E6.31639
G1 X106.606 Y99.325 E6.32102
G1 X106.809 Y100.005 E6.34209
G1 X106.849 Y100.255 E6.34960
G1 X106.901 Y100.426 E6.35489
G1 X106.953 Y101.050 E6.37349
G1 X106.948 Y101.354 E6.38253
G1 X106.892 Y101.892 E6.39860
G1 X106.799 Y102.161 E6.40705
G1 X106.609 Y102.423 E6.41665
G1 X106.365 Y102.615 E6.42587
G1 X106.255 Y102.675 E6.42960
G1 X105.803 Y102.835 E6.44383
G1 X105.343 Y102.957 E6.45794
G1 X104.834 Y103.020 E6.47317
G1 X104.713 Y103.054 E6.47692
G1 X104.431 Y103.077 E6.48533
G1 X104.177 Y103.167 E6.49331
G1 X103.702 Y103.384 E6.50882
G1 X103.392 Y103.733 E6.52267
G1 X103.141 Y104.520 E6.54720
G1 X103.135 Y104.680 E6.55196
G1 X103.091 Y104.926 E6.55936
G1 X103.049 Y105.793 E6.58513
G1 X103.056 Y106.427 E6.60396
G1 X103.155 Y108.979 E6.67979
G1 X103.216 Y109.696 E6.70115
G1 X103.250 Y109.842 E6.70560
G1 X103.259 Y110.067 E6.71229
G1 X103.465 Y110.777 E6.73427
G1 X103.768 Y111.192 E6.74951
G1 X103.766 Y111.639 F3600.000
G1 X103.679 Y111.575
G1 F1800
G1 X104.322 Y111.815 E6.76989
G1 X105.008 Y111.681 E6.79064
G1 X105.442 Y111.627 E6.80362
G1 X106.986 Y111.286 E6.85058
G1 X107.536 Y111.204 E6.86710
G1 X107.791 Y111.194 E6.87467
G1 X107.955 Y111.222 E6.87960
G1 X108.048 Y111.272 E6.88274
G1 X108.157 Y111.483 E6.88978
G1 X108.212 Y111.852 E6.90085
G1 X108.233 Y112.264 E6.91310
G1 X108.234 Y113.203 E6.94099
G1 X108.214 Y113.665 E6.95473
G1 X108.154 Y114.107 E6.96796
G1 X108.112 Y114.260 E6.97268
G1 X108.023 Y114.435 E6.97849
G1 X107.980 Y114.486 E6.98049
G1 X107.783 Y114.614 E6.98745
G1 X107.500 Y114.713 E6.99638
G1 X105.556 Y115.153 E7.05554
G1 X104.475 Y115.331 E7.08807
G1 X104.000 Y115.352 E7.10218
G1 X103.550 Y115.293 E7.11567
G1 X103.307 Y115.196 E7.12344
G1 X103.078 Y115.169 E7.13028
G1 X101.995 Y114.727 E7.16500
G1 X100.915 Y114.550 E7.19750
G1 X100.551 Y114.581 E7.20834
G1 X100.299 Y114.571 E7.21583
G1 X99.585 Y114.659 E7.23719
G1 X98.835 Y114.844 E7.26014
G1 X98.251 Y115.099 E7.27906
G1 X97.953 Y115.410 E7.29185
G1 X97.765 Y115.530 E7.29846
G1 X97.574 Y115.930 E7.31162
G1 X97.474 Y116.051 E7.31628
G1 X97.362 Y116.402 E7.32723
G1 X97.292 Y116.548 E7.33202
G1 X97.186 Y117.065 E7.34771
G1 X97.149 Y117.568 E7.36268
G1 X97.155 Y119.050 E7.40669
G1 X97.076 Y119.505 E7.42039
G1 X96.980 Y119.696 E7.42674
G1 X96.857 Y119.847 E7.43252
G1 X96.712 Y119.971 E7.43820
G1 X96.092 Y120.377 E7.46019
G1 X95.691 Y120.582 E7.47356
G1 X95.282 Y120.759 E7.48678
G1 X95.130 Y120.801 E7.49149
G1 X95.000 Y120.815 E7.49536
G1 X94.718 Y120.759 E7.50391
G1 X94.309 Y120.582 E7.51713
G1 X93.908 Y120.376 E7.53050
G1 X93.288 Y119.971 E7.55249
G1 X93.143 Y119.847 E7.55817
G1 X93.020 Y119.696 E7.56395
G1 X92.924 Y119.505 E7.57031
G1 X92.845 Y119.050 E7.58400
G1 X92.851 Y117.568 E7.62802
G1 X92.814 Y117.065 E7.64298
G1 X92.708 Y116.548 E7.65867
G1 X92.638 Y116.402 E7.66346
G1 X92.526 Y116.051 E7.67441
G1 X92.426 Y115.930 E7.67907
G1 X92.235 Y115.530 E7.69224
G1 X92.047 Y115.410 E7.69884
G1 X91.749 Y115.099 E7.71163
G1 X91.165 Y114.844 E7.73055
G1 X90.415 Y114.659 E7.75350
G1 X89.701 Y114.571 E7.77486
G1 X89.449 Y114.581 E7.78235
G1 X89.085 Y114.550 E7.79319
G1 X88.005 Y114.727 E7.82569
G1 X86.922 Y115.169 E7.86041
G1 X86.693 Y115.196 E7.86725
G1 X86.450 Y115.293 E7.87502
G1 X85.992 Y115.353 E7.88873
G1 X85.537 Y115.332 E7.90225
G1 X84.441 Y115.153 E7.93523
G1 X82.498 Y114.712 E7.99438
G1 X82.217 Y114.614 E8.00324
G1 X82.020 Y114.486 E8.01021
G1 X81.888 Y114.260 E8.01798
G1 X81.846 Y114.107 E8.02270
G1 X81.786 Y113.665 E8.03593
G1 X81.766 Y113.203 E8.04967
G1 X81.767 Y112.264 E8.07755
G1 X81.788 Y111.852 E8.08981
G1 X81.843 Y111.483 E8.10088
G1 X81.952 Y111.272 E8.10792
G1 X82.045 Y111.222 E8.11106
G1 X82.209 Y111.194 E8.11599
G1 X82.469 Y111.204 E8.12371
G1 X82.799 Y111.248 E8.13361
G1 X84.560 Y111.628 E8.18708
G1 X84.992 Y111.681 E8.20002
G1 X85.678 Y111.815 E8.22076
G1 X86.422 Y111.538 E8.24433
G1 X86.860 Y110.937 E8.26640
G1 X87.097 Y110.124 E8.29155
G1 X87.106 Y109.890 E8.29851
G1 X87.138 Y109.752 E8.30271
G1 X87.202 Y109.001 E8.32509
G1 X87.301 Y106.436 E8.40131
G1 X87.308 Y105.786 E8.42061
G1 X87.264 Y104.885 E8.44738
G1 X87.221 Y104.643 E8.45470
G1 X87.215 Y104.470 E8.45984
G1 X87.111 Y104.094 E8.47141
G1 X86.919 Y103.547 E8.48863
G1 X86.515 Y103.091 E8.50672
G1 X85.957 Y102.836 E8.52492
G1 X85.657 Y102.729 E8.53439
G1 X84.817 Y102.623 E8.55954
G1 X84.300 Y102.493 E8.57536
G1 X83.891 Y102.348 E8.58825
G1 X83.651 Y102.173 E8.59706
G1 X83.521 Y101.995 E8.60361
G1 X83.457 Y101.810 E8.60942
G1 X83.427 Y101.566 E8.61670
G1 X83.405 Y101.045 E8.63219
G1 X83.450 Y100.501 E8.64839
G1 X83.623 Y99.786 E8.67024
G1 X83.673 Y99.677 E8.67381
G1 X83.732 Y99.448 E8.68082
G1 X83.798 Y99.319 E8.68512
G1 X83.928 Y98.881 E8.69869
G1 X84.055 Y98.659 E8.70628
G1 X84.219 Y98.492 E8.71324
G1 X84.415 Y98.536 E8.71921
G1 X84.720 Y98.543 E8.72826
G1 X84.832 Y98.604 E8.73206
G1 X85.026 Y98.816 E8.74059
G1 X85.533 Y98.988 E8.75648
G1 X85.834 Y99.277 E8.76888
G1 X86.404 Y99.441 E8.78648
G1 X87.411 Y99.966 E8.82022
G1 X88.564 Y100.139 E8.85481
G1 X90.204 Y98.880 E8.91620
G1 X90.408 Y98.481 E8.92950
G1 X90.574 Y98.310 E8.93658
G1 X91.145 Y97.021 E8.97846
G1 X91.387 Y96.160 E9.00498
G1 X91.472 Y95.433 E9.02672
G1 X91.462 Y94.755 E9.04686
G1 X91.390 Y93.825 E9.07456
G1 X91.094 Y92.331 E9.11978
G1 X90.833 Y90.001 E9.18940
G1 X90.699 Y88.164 E9.24408
G1 X90.679 Y87.603 E9.26074
G1 X90.685 Y86.930 E9.28073
G1 X90.735 Y86.341 E9.29829
G1 X90.799 Y85.886 E9.31192
G1 X91.186 Y83.593 E9.38097
G1 X91.373 Y81.717 E9.43694
G1 X91.510 Y79.527 E9.50210
G1 X91.596 Y76.830 E9.58222
G1 X91.685 Y74.768 E9.64350
G1 X91.778 Y73.567 E9.67926
G1 X91.927 Y72.492 E9.71149
G1 X92.001 Y72.150 E9.72187
G1 X92.109 Y71.773 E9.73351
G1 X92.235 Y71.468 E9.74332
G1 X92.381 Y71.217 E9.75192
G1 X92.552 Y71.007 E9.75998
G1 X92.751 Y70.822 E9.76805
G1 X92.914 Y70.705 E9.77402
G1 X93.511 Y70.461 E9.79315
G1 X94.018 Y70.346 E9.80859
G1 X94.500 Y70.289 E9.82301
G1 X95.432 Y70.287 E9.85066
G1 X95.985 Y70.346 E9.86718
G1 X96.500 Y70.464 E9.88287
G1 X96.709 Y70.539 E9.88946
G1 X97.080 Y70.701 E9.90149
G1 X97.249 Y70.822 E9.90766
G1 X97.448 Y71.007 E9.91573
G1 X97.619 Y71.218 E9.92379
G1 X97.765 Y71.468 E9.93239
G1 X97.891 Y71.773 E9.94219
G1 X97.997 Y72.142 E9.95358
G1 X98.157 Y73.013 E9.97989
G1 X98.222 Y73.561 E9.99628
G1 X98.315 Y74.768 E10.03221
G1 X98.404 Y76.830 E10.09349
G1 X98.490 Y79.527 E10.17361
G1 X98.627 Y81.717 E10.23877
G1 X98.814 Y83.593 E10.29474
G1 X99.201 Y85.886 E10.36379
G1 X99.265 Y86.341 E10.37742
G1 X99.315 Y86.930 E10.39498
G1 X99.321 Y87.603 E10.41496
G1 X99.301 Y88.164 E10.43163
G1 X99.167 Y90.001 E10.48631
G1 X98.906 Y92.331 E10.55593
G1 X98.610 Y93.825 E10.60115
G1 X98.538 Y94.755 E10.62884
G1 X98.528 Y95.433 E10.64899
G1 X98.613 Y96.160 E10.67072
G1 X98.855 Y97.021 E10.69725
G1 X99.426 Y98.310 E10.73912
G1 X99.592 Y98.481 E10.74620
G1 X99.796 Y98.880 E10.75951
G1 X101.436 Y100.139 E10.82089
G1 X102.589 Y99.967 E10.85549
G1 X103.596 Y99.441 E10.88923
G1 X104.166 Y99.277 E10.90683
