; generated by PrusaSlicer 2.0.0+ on 2020-04-11 at 22:12:17

; 

; external perimeters extrusion width = 0.45mm
; perimeters extrusion width = 0.45mm
; infill extrusion width = 0.45mm
; solid infill extrusion width = 0.45mm
; top infill extrusion width = 0.40mm
; first layer extrusion width = 0.40mm

M201 X9000 Y9000 Z500 E10000 ; sets maximum accelerations, mm/sec^2
M203 X500 Y500 Z12 E120 ; sets maximum feedrates, mm/sec
M204 P1500 R1500 T1500 ; sets acceleration (P, T) and retract acceleration (R), mm/sec^2
M205 X10.00 Y10.00 Z0.20 E2.50 ; sets the jerk limits, mm/sec
M205 S0 T0 ; sets the minimum extruding and travel feed rate, mm/sec
M107
M190 S52 ; set bed temperature and wait for it to be reached
M104 S180 ; set temperature
G28 ; home all axes
G1 Z5 F5000 ; lift nozzle
; Filament gcode
M109 S180 ; set temperature and wait for it to be reached
G21 ; set units to millimeters
G90 ; use absolute coordinates
M82 ; use absolute distances for extrusion
G92 E0
G1 Z0.200 F3600.000
G1 E-2.00000 F2400.00000
G92 E0
G1 X10.903 Y60.888 F3600.000
G1 E2.00000 F2400.00000
G1 F1800
G1 X12.914 Y59.720 E2.06904
G1 X13.661 Y59.458 E2.09255
G1 X15.101 Y59.105 E2.13659
G1 X51.384 Y54.339 E3.22312
G1 X113.842 Y54.277 E5.07758
G1 X138.973 Y54.373 E5.82374
G1 X175.095 Y59.140 E6.90555
G1 X176.944 Y59.661 E6.96260
G1 X178.519 Y60.496 E7.01552
G1 X179.504 Y61.227 E7.05193
G1 X180.755 Y62.529 E7.10556
G1 X181.660 Y63.970 E7.15608
G1 X182.061 Y64.818 E7.18395
G1 X182.524 Y66.434 E7.23385
G1 X182.668 Y67.516 E7.26626
G1 X182.662 Y106.487 E8.42336
G1 X179.774 Y128.336 E9.07773
G1 X179.264 Y130.063 E9.13118
G1 X178.423 Y131.626 E9.18387
G1 X177.707 Y132.575 E9.21919
G1 X176.425 Y133.804 E9.27191
G1 X174.963 Y134.721 E9.32315
G1 X174.067 Y135.137 E9.35247
G1 X172.419 Y135.594 E9.40325
G1 X171.243 Y135.722 E9.43839
G1 X18.772 Y135.722 E13.96546
G1 X17.314 Y135.533 E14.00911
G1 X16.084 Y135.190 E14.04702
G1 X15.215 Y134.818 E14.07507
G1 X13.497 Y133.742 E14.13526
G1 X11.934 Y132.146 E14.20160
G1 X10.778 Y130.163 E14.26974
G1 X10.166 Y128.041 E14.33530
G1 X7.327 Y106.203 E14.98916
G1 X7.346 Y67.301 E16.14421
G1 X7.466 Y66.482 E16.16881
G1 X7.779 Y65.292 E16.20535
G1 X8.306 Y64.031 E16.24592
G1 X9.334 Y62.419 E16.30269
G1 X10.860 Y60.930 E16.36600
G1 E14.36600 F2400.00000
G92 E0
G1 X117.563 Y65.205 F3600.000
G1 E2.00000 F2400.00000
G1 F1800
G1 X137.458 Y67.817 E2.59577
G1 X137.657 Y66.305 E2.64106
G1 X136.757 Y66.065 E2.66872
G1 X136.124 Y65.699 E2.69043
G1 X135.607 Y65.182 E2.71213
G1 X135.242 Y64.550 E2.73381
G1 X135.053 Y63.844 E2.75551
G1 X135.053 Y63.113 E2.77720
G1 X135.242 Y62.408 E2.79888
G1 X135.607 Y61.776 E2.82055
G1 X136.124 Y61.259 E2.84225
G1 X136.757 Y60.893 E2.86396
G1 X137.462 Y60.705 E2.88563
G1 X138.193 Y60.705 E2.90732
G1 X138.899 Y60.893 E2.92902
G1 X139.531 Y61.259 E2.95071
G1 X140.048 Y61.776 E2.97241
G1 X140.413 Y62.408 E2.99408
G1 X140.602 Y63.113 E3.01576
G1 X140.602 Y63.857 E3.03784
G1 X140.037 Y68.155 E3.16656
G1 X149.356 Y69.379 E3.44565
G1 X149.555 Y67.872 E3.49078
G1 X148.654 Y67.631 E3.51848
G1 X148.022 Y67.265 E3.54017
G1 X147.505 Y66.749 E3.56185
G1 X147.140 Y66.116 E3.58355
G1 X146.951 Y65.411 E3.60523
G1 X146.951 Y64.680 E3.62691
G1 X147.140 Y63.974 E3.64862
G1 X147.505 Y63.342 E3.67029
G1 X148.022 Y62.825 E3.69199
G1 X148.654 Y62.460 E3.71366
G1 X149.360 Y62.271 E3.73537
G1 X150.091 Y62.271 E3.75706
G1 X150.796 Y62.460 E3.77874
G1 X151.429 Y62.825 E3.80044
G1 X151.945 Y63.342 E3.82211
G1 X152.311 Y63.974 E3.84381
G1 X152.500 Y64.680 E3.86551
G1 X152.500 Y65.424 E3.88759
G1 X151.935 Y69.717 E4.01616
G1 X161.254 Y70.941 E4.29525
G1 X161.452 Y69.438 E4.34026
G1 X160.552 Y69.197 E4.36793
G1 X159.920 Y68.832 E4.38961
G1 X159.403 Y68.315 E4.41131
G1 X159.037 Y67.683 E4.43299
G1 X158.849 Y66.977 E4.45469
G1 X158.849 Y66.246 E4.47638
G1 X159.037 Y65.540 E4.49808
G1 X159.403 Y64.908 E4.51977
G1 X159.920 Y64.391 E4.54146
G1 X160.552 Y64.026 E4.56314
G1 X161.257 Y63.837 E4.58482
G1 X161.989 Y63.837 E4.60653
G1 X162.694 Y64.026 E4.62821
G1 X163.326 Y64.391 E4.64989
G1 X163.843 Y64.908 E4.67159
G1 X164.209 Y65.540 E4.69327
G1 X164.397 Y66.246 E4.71497
G1 X164.397 Y66.990 E4.73705
G1 X163.833 Y71.279 E4.86551
G1 X173.153 Y72.503 E5.14462
G1 X173.350 Y71.004 E5.18952
G1 X172.450 Y70.763 E5.21718
G1 X171.817 Y70.398 E5.23889
G1 X171.300 Y69.881 E5.26058
G1 X170.935 Y69.249 E5.28226
G1 X170.746 Y68.543 E5.30396
G1 X170.746 Y67.812 E5.32565
G1 X170.935 Y67.107 E5.34733
G1 X171.300 Y66.475 E5.36900
G1 X171.817 Y65.958 E5.39070
G1 X172.450 Y65.592 E5.41241
G1 X173.155 Y65.404 E5.43408
G1 X173.886 Y65.404 E5.45577
G1 X174.592 Y65.592 E5.47747
G1 X175.224 Y65.958 E5.49916
G1 X175.741 Y66.475 E5.52086
G1 X176.106 Y67.107 E5.54253
G1 X176.295 Y67.812 E5.56421
G1 X176.295 Y68.556 E5.58629
G1 X173.553 Y89.379 E6.20989
G1 X173.362 Y90.097 E6.23195
G1 X172.996 Y90.729 E6.25364
G1 X172.479 Y91.246 E6.27534
G1 X171.847 Y91.612 E6.29703
G1 X171.141 Y91.800 E6.31872
G1 X170.410 Y91.800 E6.34041
G1 X169.705 Y91.612 E6.36208
G1 X169.072 Y91.246 E6.38379
G1 X168.556 Y90.729 E6.40547
G1 X168.190 Y90.097 E6.42717
G1 X168.001 Y89.392 E6.44884
G1 X168.001 Y88.660 E6.47055
G1 X168.190 Y87.955 E6.49223
G1 X168.556 Y87.323 E6.51393
G1 X169.072 Y86.806 E6.53560
G1 X169.705 Y86.440 E6.55732
G1 X170.410 Y86.252 E6.57899
G1 X171.342 Y86.252 E6.60666
G1 X171.585 Y84.411 E6.66180
G1 X162.265 Y83.188 E6.94092
G1 X161.656 Y87.812 E7.07940
G1 X161.464 Y88.531 E7.10150
G1 X161.098 Y89.163 E7.12319
G1 X160.581 Y89.680 E7.14489
G1 X159.949 Y90.045 E7.16656
G1 X159.244 Y90.234 E7.18824
G1 X158.513 Y90.234 E7.20993
G1 X157.807 Y90.045 E7.23163
G1 X157.175 Y89.680 E7.25331
G1 X156.658 Y89.163 E7.27501
G1 X156.292 Y88.531 E7.29670
G1 X156.104 Y87.825 E7.31839
G1 X156.104 Y87.094 E7.34008
G1 X156.292 Y86.389 E7.36175
G1 X156.658 Y85.756 E7.38346
G1 X157.175 Y85.240 E7.40514
G1 X157.807 Y84.874 E7.42684
G1 X158.513 Y84.685 E7.44854
G1 X159.445 Y84.685 E7.47621
G1 X159.687 Y82.849 E7.53121
G1 X150.367 Y81.626 E7.81032
G1 X149.758 Y86.246 E7.94868
G1 X149.566 Y86.964 E7.97076
G1 X149.201 Y87.597 E7.99246
G1 X148.684 Y88.113 E8.01413
G1 X148.052 Y88.479 E8.03583
G1 X147.346 Y88.668 E8.05753
G1 X146.615 Y88.668 E8.07921
G1 X145.909 Y88.479 E8.10092
G1 X145.277 Y88.113 E8.12261
G1 X144.760 Y87.597 E8.14429
G1 X144.395 Y86.964 E8.16599
G1 X144.206 Y86.259 E8.18767
G1 X144.206 Y85.528 E8.20935
G1 X144.395 Y84.822 E8.23106
G1 X144.760 Y84.190 E8.25274
G1 X145.277 Y83.673 E8.27443
G1 X145.909 Y83.308 E8.29611
G1 X146.615 Y83.119 E8.31782
G1 X147.547 Y83.119 E8.34549
G1 X147.788 Y81.287 E8.40036
G1 X138.469 Y80.064 E8.67944
G1 X137.860 Y84.680 E8.81769
G1 X137.669 Y85.398 E8.83975
G1 X137.303 Y86.030 E8.86144
G1 X136.786 Y86.547 E8.88314
G1 X136.154 Y86.913 E8.90483
G1 X135.448 Y87.101 E8.92653
G1 X134.717 Y87.101 E8.94822
G1 X134.012 Y86.913 E8.96989
G1 X133.379 Y86.547 E8.99160
G1 X132.863 Y86.030 E9.01328
G1 X132.497 Y85.398 E9.03497
G1 X132.308 Y84.693 E9.05665
G1 X132.308 Y83.962 E9.07833
G1 X132.497 Y83.256 E9.10003
G1 X132.863 Y82.624 E9.12173
G1 X133.379 Y82.107 E9.14341
G1 X134.012 Y81.741 E9.16512
G1 X134.717 Y81.553 E9.18679
G1 X135.649 Y81.553 E9.21446
G1 X135.890 Y79.725 E9.26922
G1 X119.977 Y77.636 E9.74577
G1 X119.970 Y78.034 E9.75760
G1 X119.931 Y78.348 E9.76699
G1 X119.851 Y78.617 E9.77532
G1 X119.729 Y78.851 E9.78317
G1 X119.477 Y79.129 E9.79430
G1 X119.124 Y79.341 E9.80651
G1 X118.824 Y79.445 E9.81595
G1 X118.273 Y79.540 E9.83256
G1 X117.844 Y79.558 E9.84531
G1 X71.935 Y79.553 E11.20841
G1 X71.346 Y79.485 E11.22601
G1 X71.022 Y79.398 E11.23595
G1 X70.749 Y79.279 E11.24480
G1 X70.431 Y79.047 E11.25648
G1 X70.269 Y78.847 E11.26413
G1 X70.149 Y78.617 E11.27183
G1 X70.069 Y78.348 E11.28016
G1 X70.030 Y78.034 E11.28956
G1 X70.023 Y77.636 E11.30139
G1 X54.110 Y79.725 E11.77794
G1 X54.351 Y81.553 E11.83269
G1 X55.283 Y81.553 E11.86037
G1 X55.988 Y81.741 E11.88204
G1 X56.621 Y82.107 E11.90375
G1 X57.137 Y82.624 E11.92543
G1 X57.503 Y83.256 E11.94712
G1 X57.692 Y83.962 E11.96883
G1 X57.692 Y84.693 E11.99051
G1 X57.503 Y85.398 E12.01219
G1 X57.137 Y86.030 E12.03388
G1 X56.621 Y86.547 E12.05556
G1 X55.988 Y86.913 E12.07727
G1 X55.283 Y87.101 E12.09894
G1 X54.552 Y87.101 E12.12063
G1 X53.846 Y86.913 E12.14233
G1 X53.214 Y86.547 E12.16402
G1 X52.697 Y86.030 E12.18572
G1 X52.331 Y85.398 E12.20741
G1 X52.140 Y84.680 E12.22947
G1 X51.531 Y80.064 E12.36772
G1 X42.212 Y81.287 E12.64680
G1 X42.453 Y83.119 E12.70167
G1 X43.385 Y83.119 E12.72934
G1 X44.091 Y83.308 E12.75105
G1 X44.723 Y83.673 E12.77273
G1 X45.240 Y84.190 E12.79442
G1 X45.605 Y84.822 E12.81610
G1 X45.794 Y85.528 E12.83781
G1 X45.794 Y86.259 E12.85949
G1 X45.605 Y86.964 E12.88117
G1 X45.240 Y87.597 E12.90287
G1 X44.723 Y88.113 E12.92455
G1 X44.091 Y88.479 E12.94624
G1 X43.385 Y88.668 E12.96794
G1 X42.654 Y88.668 E12.98963
G1 X41.948 Y88.479 E13.01133
G1 X41.316 Y88.113 E13.03302
G1 X40.799 Y87.597 E13.05470
G1 X40.434 Y86.964 E13.07640
G1 X40.242 Y86.246 E13.09847
G1 X39.633 Y81.626 E13.23684
G1 X30.314 Y82.849 E13.51592
G1 X30.555 Y84.685 E13.57091
G1 X31.487 Y84.685 E13.59858
G1 X32.193 Y84.874 E13.62029
G1 X32.825 Y85.240 E13.64198
G1 X33.342 Y85.756 E13.66366
G1 X33.708 Y86.389 E13.68537
G1 X33.896 Y87.094 E13.70704
G1 X33.896 Y87.825 E13.72873
G1 X33.708 Y88.531 E13.75043
G1 X33.342 Y89.163 E13.77211
G1 X32.825 Y89.680 E13.79381
G1 X32.193 Y90.045 E13.81549
G1 X31.487 Y90.234 E13.83720
G1 X30.756 Y90.234 E13.85888
G1 X30.051 Y90.045 E13.88056
G1 X29.419 Y89.680 E13.90224
G1 X28.902 Y89.163 E13.92394
G1 X28.536 Y88.531 E13.94563
G1 X28.344 Y87.812 E13.96772
G1 X27.735 Y83.188 E14.10620
G1 X18.415 Y84.411 E14.38532
G1 X18.658 Y86.252 E14.44046
G1 X19.590 Y86.252 E14.46814
G1 X20.295 Y86.440 E14.48981
G1 X20.928 Y86.806 E14.51152
G1 X21.444 Y87.323 E14.53320
G1 X21.810 Y87.955 E14.55489
G1 X21.999 Y88.660 E14.57657
G1 X21.999 Y89.392 E14.59828
G1 X21.810 Y90.097 E14.61996
G1 X21.444 Y90.729 E14.64165
G1 X20.928 Y91.246 E14.66333
G1 X20.295 Y91.612 E14.68504
G1 X19.590 Y91.800 E14.70671
G1 X18.859 Y91.800 E14.72840
G1 X18.153 Y91.612 E14.75010
G1 X17.521 Y91.246 E14.77179
G1 X17.004 Y90.729 E14.79349
G1 X16.638 Y90.097 E14.81518
G1 X16.447 Y89.379 E14.83724
G1 X13.705 Y68.556 E15.46084
G1 X13.705 Y67.812 E15.48291
G1 X13.894 Y67.107 E15.50459
G1 X14.259 Y66.475 E15.52627
G1 X14.776 Y65.958 E15.54797
G1 X15.408 Y65.592 E15.56965
G1 X16.114 Y65.404 E15.59135
G1 X16.845 Y65.404 E15.61304
G1 X17.550 Y65.592 E15.63471
G1 X18.183 Y65.958 E15.65643
G1 X18.700 Y66.475 E15.67812
G1 X19.065 Y67.107 E15.69980
G1 X19.254 Y67.812 E15.72148
G1 X19.254 Y68.543 E15.74316
G1 X19.065 Y69.249 E15.76487
G1 X18.700 Y69.881 E15.78654
G1 X18.183 Y70.398 E15.80824
G1 X17.550 Y70.763 E15.82994
G1 X16.650 Y71.004 E15.85761
G1 X16.847 Y72.503 E15.90250
G1 X26.167 Y71.279 E16.18162
G1 X25.603 Y66.990 E16.31007
G1 X25.603 Y66.246 E16.33215
G1 X25.791 Y65.540 E16.35385
G1 X26.157 Y64.908 E16.37554
G1 X26.674 Y64.391 E16.39724
G1 X27.306 Y64.026 E16.41891
G1 X28.011 Y63.837 E16.44059
G1 X28.743 Y63.837 E16.46230
G1 X29.448 Y64.026 E16.48398
G1 X30.080 Y64.391 E16.50566
G1 X30.597 Y64.908 E16.52736
G1 X30.963 Y65.540 E16.54904
G1 X31.151 Y66.246 E16.57074
G1 X31.151 Y66.977 E16.59243
G1 X30.963 Y67.683 E16.61413
G1 X30.597 Y68.315 E16.63582
G1 X30.080 Y68.832 E16.65752
G1 X29.448 Y69.197 E16.67919
G1 X28.548 Y69.438 E16.70686
G1 X28.746 Y70.941 E16.75187
G1 X38.065 Y69.717 E17.03096
G1 X37.500 Y65.424 E17.15954
G1 X37.500 Y64.680 E17.18161
G1 X37.689 Y63.974 E17.20332
G1 X38.055 Y63.342 E17.22501
G1 X38.571 Y62.825 E17.24669
G1 X39.204 Y62.460 E17.26839
G1 X39.909 Y62.271 E17.29007
G1 X40.640 Y62.271 E17.31175
G1 X41.346 Y62.460 E17.33346
G1 X41.978 Y62.825 E17.35513
G1 X42.495 Y63.342 E17.37683
G1 X42.860 Y63.974 E17.39851
G1 X43.049 Y64.680 E17.42021
G1 X43.049 Y65.411 E17.44190
G1 X42.860 Y66.116 E17.46358
G1 X42.495 Y66.749 E17.48528
G1 X41.978 Y67.265 E17.50695
G1 X41.346 Y67.631 E17.52865
G1 X40.445 Y67.872 E17.55634
G1 X40.644 Y69.379 E17.60148
G1 X49.963 Y68.155 E17.88056
G1 X49.398 Y63.857 E18.00928
G1 X49.398 Y63.113 E18.03136
G1 X49.587 Y62.408 E18.05304
G1 X49.952 Y61.776 E18.07472
G1 X50.469 Y61.259 E18.09642
G1 X51.101 Y60.893 E18.11810
G1 X51.807 Y60.705 E18.13980
G1 X52.538 Y60.705 E18.16149
G1 X53.243 Y60.893 E18.18316
G1 X53.876 Y61.259 E18.20487
G1 X54.393 Y61.776 E18.22657
G1 X54.758 Y62.408 E18.24825
G1 X54.947 Y63.113 E18.26993
G1 X54.947 Y63.844 E18.29161
G1 X54.758 Y64.550 E18.31332
G1 X54.393 Y65.182 E18.33499
G1 X53.876 Y65.699 E18.35669
G1 X53.243 Y66.065 E18.37840
G1 X52.343 Y66.305 E18.40606
G1 X52.542 Y67.817 E18.45135
G1 X72.437 Y65.205 E19.04712
G1 X73.741 Y62.057 E19.14831
G1 X74.185 Y61.477 E19.17000
G1 X74.765 Y61.033 E19.19169
G1 X75.439 Y60.753 E19.21337
G1 X76.177 Y60.656 E19.23546
G1 X113.823 Y60.656 E20.35322
G1 X114.561 Y60.753 E20.37531
G1 X115.235 Y61.033 E20.39699
G1 X115.815 Y61.477 E20.41868
G1 X116.259 Y62.057 E20.44037
G1 X117.540 Y65.150 E20.53978
G1 X117.587 Y65.605 F3600.000
G1 X117.312 Y65.532
G1 F1800
G1 X137.766 Y68.218 E21.15227
G1 X138.052 Y66.041 E21.21746
G1 X136.895 Y65.732 E21.25303
G1 X136.343 Y65.413 E21.27194
G1 X135.893 Y64.963 E21.29085
G1 X135.575 Y64.412 E21.30973
G1 X135.410 Y63.797 E21.32865
G1 X135.410 Y63.160 E21.34754
G1 X135.575 Y62.546 E21.36643
G1 X135.893 Y61.995 E21.38532
G1 X136.343 Y61.545 E21.40422
G1 X136.895 Y61.226 E21.42314
G1 X137.509 Y61.062 E21.44202
G1 X138.146 Y61.062 E21.46092
G1 X138.761 Y61.226 E21.47983
G1 X139.312 Y61.545 E21.49871
G1 X139.762 Y61.995 E21.51762
G1 X140.080 Y62.546 E21.53651
G1 X140.245 Y63.160 E21.55540
G1 X140.245 Y63.834 E21.57538
G1 X139.636 Y68.463 E21.71402
G1 X149.663 Y69.780 E22.01430
G1 X149.950 Y67.609 E22.07933
G1 X148.792 Y67.298 E22.11493
G1 X148.241 Y66.979 E22.13383
G1 X147.791 Y66.530 E22.15272
G1 X147.473 Y65.978 E22.17162
G1 X147.308 Y65.364 E22.19052
G1 X147.308 Y64.727 E22.20941
G1 X147.473 Y64.112 E22.22832
G1 X147.791 Y63.561 E22.24721
G1 X148.241 Y63.111 E22.26611
G1 X148.792 Y62.793 E22.28499
G1 X149.407 Y62.628 E22.30391
G1 X150.044 Y62.628 E22.32280
G1 X150.658 Y62.793 E22.34170
G1 X151.210 Y63.111 E22.36060
G1 X151.659 Y63.561 E22.37948
G1 X151.978 Y64.112 E22.39839
G1 X152.143 Y64.727 E22.41730
G1 X152.143 Y65.400 E22.43729
G1 X151.534 Y70.025 E22.57577
G1 X161.562 Y71.342 E22.87606
G1 X161.847 Y69.175 E22.94097
G1 X160.690 Y68.864 E22.97654
G1 X160.139 Y68.546 E22.99543
G1 X159.689 Y68.096 E23.01433
G1 X159.370 Y67.545 E23.03322
G1 X159.206 Y66.930 E23.05213
G1 X159.206 Y66.293 E23.07104
G1 X159.370 Y65.678 E23.08994
G1 X159.689 Y65.127 E23.10883
G1 X160.139 Y64.677 E23.12774
G1 X160.690 Y64.359 E23.14662
G1 X161.304 Y64.194 E23.16552
G1 X161.942 Y64.194 E23.18443
G1 X162.556 Y64.359 E23.20332
G1 X163.107 Y64.677 E23.22221
G1 X163.557 Y65.127 E23.24112
G1 X163.876 Y65.678 E23.26001
G1 X164.040 Y66.293 E23.27891
G1 X164.040 Y66.967 E23.29890
G1 X163.432 Y71.587 E23.43727
G1 X173.461 Y72.904 E23.73759
G1 X173.745 Y70.741 E23.80238
G1 X172.588 Y70.430 E23.83795
G1 X172.036 Y70.112 E23.85686
G1 X171.586 Y69.662 E23.87575
G1 X171.268 Y69.111 E23.89464
G1 X171.103 Y68.496 E23.91356
G1 X171.103 Y67.859 E23.93245
G1 X171.268 Y67.245 E23.95134
G1 X171.586 Y66.694 E23.97022
G1 X172.036 Y66.244 E23.98913
G1 X172.588 Y65.925 E24.00805
G1 X173.202 Y65.761 E24.02692
G1 X173.839 Y65.761 E24.04583
G1 X174.454 Y65.925 E24.06473
G1 X175.005 Y66.244 E24.08362
G1 X175.455 Y66.694 E24.10253
G1 X175.773 Y67.245 E24.12142
G1 X175.938 Y67.859 E24.14031
G1 X175.938 Y68.532 E24.16029
G1 X173.202 Y89.309 E24.78251
G1 X173.029 Y89.959 E24.80247
G1 X172.710 Y90.510 E24.82137
G1 X172.260 Y90.960 E24.84028
G1 X171.709 Y91.279 E24.85917
G1 X171.094 Y91.443 E24.87807
G1 X170.457 Y91.443 E24.89698
G1 X169.843 Y91.279 E24.91586
G1 X169.291 Y90.960 E24.93477
G1 X168.842 Y90.510 E24.95366
G1 X168.523 Y89.959 E24.97257
G1 X168.358 Y89.345 E24.99145
G1 X168.358 Y88.707 E25.01037
G1 X168.523 Y88.093 E25.02925
G1 X168.842 Y87.542 E25.04816
G1 X169.291 Y87.092 E25.06705
G1 X169.843 Y86.773 E25.08596
